; generated by PrusaSlicer 2.5.0+win64 on 2023-01-09 at 16:50:40 UTC

; 

; external perimeters extrusion width = 0.45mm
; perimeters extrusion width = 0.45mm
; infill extrusion width = 0.45mm
; solid infill extrusion width = 0.45mm
; top infill extrusion width = 0.40mm
; support material extrusion width = 0.35mm
; first layer extrusion width = 0.42mm

M73 P0 R108
M73 Q0 S109
M201 X1000 Y1000 Z200 E5000 ; sets maximum accelerations, mm/sec^2
M203 X200 Y200 Z12 E120 ; sets maximum feedrates, mm / sec
M204 P1250 R1250 T1250 ; sets acceleration (P, T) and retract acceleration (R), mm/sec^2
M205 X8.00 Y8.00 Z0.40 E4.50 ; sets the jerk limits, mm/sec
M205 S0 T0 ; sets the minimum extruding and travel feed rate, mm/sec
M107
;TYPE:Custom
M862.3 P "MK3S" ; printer model check
M862.1 P0.4 ; nozzle diameter check
M115 U3.9.3 ; tell printer latest fw version
G90 ; use absolute coordinates
M83 ; extruder relative mode
M104 S215 ; set extruder temp
M140 S70 ; set bed temp
M190 S70 ; wait for bed temp
M109 S215 ; wait for extruder temp
G28 W ; home all without mesh bed level
G80 ; mesh bed leveling
G1 Y-3.0 F1000.0 ; go outside print area
G92 E0.0
G1 X60.0 E9.0 F1000.0 ; intro line
G1 X100.0 E12.5 F1000.0 ; intro line
G92 E0.0
M221 S95

; Don't change E values below. Excessive value can damage the printer.

G21 ; set units to millimeters
G90 ; use absolute coordinates
M83 ; use relative distances for extrusion
M900 K30 ; Filament gcode
M107
;LAYER_CHANGE
;Z:0.2
;HEIGHT:0.2
;BEFORE_LAYER_CHANGE
G92 E0.0
;0.2


G1 E-.8 F2100
G1 Z.4 F10800
;AFTER_LAYER_CHANGE
;0.2
G1 X93.141 Y58.192
G1 Z.2
G1 E.8 F2100
M204 S1000
;TYPE:Skirt/Brim
;WIDTH:0.42
G1 F1350
G1 X93.472 Y57.712 E.01829
G1 X93.865 Y57.277 E.01836
G1 X94.313 Y56.895 E.01846
G1 X94.804 Y56.576 E.01838
G1 X95.314 Y56.332 E.01774
G1 X95.881 Y56.145 E.0187
G1 X96.403 Y56.044 E.01669
G1 X96.959 Y56.004 E.01746
G1 X153.03 Y56.003 E1.75808
G1 X153.452 Y56.026 E.01325
M73 P0 R107
G1 X153.887 Y56.092 E.01379
G1 X154.295 Y56.194 E.01318
G1 X154.709 Y56.341 E.01379
G1 X155.092 Y56.52 E.01324
G1 X155.471 Y56.743 E.0138
G1 X155.81 Y56.99 E.01314
G1 X156.138 Y57.28 E.01374
G1 X156.439 Y57.603 E.01383
G1 X156.706 Y57.954 E.01384
G1 X156.938 Y58.329 E.01383
G1 X157.137 Y58.736 E.01418
G1 X157.373 Y59.453 E.02368
G1 X157.456 Y59.897 E.01417
G1 X157.493 Y60.33 E.01361
G1 X157.497 Y149.526 E2.7967
G1 X157.451 Y150.139 E.01925
G1 X157.326 Y150.726 E.01885
G1 X157.103 Y151.337 E.02038
G1 X156.88 Y151.773 E.01535
G1 X156.527 Y152.289 E.01961
G1 X156.098 Y152.758 E.01995
G1 X155.673 Y153.116 E.01741
G1 X155.192 Y153.426 E.01794
G1 X154.685 Y153.668 E.01761
G1 X154.119 Y153.855 E.01869
G1 X153.597 Y153.956 E.01668
G1 X153.028 Y153.997 E.01787
G1 X96.974 Y153.997 E1.75755
G1 X96.362 Y153.951 E.01925
G1 X95.78 Y153.827 E.01864
G1 X95.243 Y153.638 E.01786
G1 X94.692 Y153.359 E.01935
G1 X94.212 Y153.028 E.01829
G1 X93.776 Y152.634 E.01841
G1 X93.396 Y152.189 E.01836
G1 X93.076 Y151.694 E.01847
G1 X92.832 Y151.185 E.01769
G1 X92.645 Y150.619 E.0187
G1 X92.544 Y150.096 E.0167
G1 X92.503 Y149.526 E.01794
G1 X92.503 Y60.474 E2.79216
G1 X92.549 Y59.862 E.01925
G1 X92.673 Y59.28 E.01864
G1 X92.862 Y58.743 E.01786
G1 X93.114 Y58.246 E.01747
G1 X93.449 Y58.417 F10800
G1 F1350
G1 X93.775 Y57.938 E.01817
G1 X94.135 Y57.54 E.01683
G1 X94.547 Y57.191 E.01692
G1 X94.998 Y56.9 E.01683
G1 X95.465 Y56.678 E.01623
G1 X95.986 Y56.507 E.01718
G1 X96.463 Y56.416 E.01521
G1 X96.978 Y56.38 E.0162
G1 X153.025 Y56.381 E1.7573
G1 X153.422 Y56.402 E.01247
G1 X153.821 Y56.463 E.01265
G1 X154.193 Y56.557 E.01205
G1 X154.574 Y56.693 E.01266
G1 X154.923 Y56.857 E.01211
G1 X155.271 Y57.063 E.01267
G1 X155.58 Y57.289 E.01201
G1 X155.881 Y57.556 E.01261
G1 X156.156 Y57.852 E.01267
G1 X156.4 Y58.174 E.01268
G1 X156.612 Y58.519 E.01267
G1 X156.792 Y58.889 E.01292
G1 X157.005 Y59.535 E.02132
G1 X157.081 Y59.94 E.01292
G1 X157.116 Y60.338 E.01254
G1 X157.12 Y149.52 E2.79622
G1 X157.079 Y150.073 E.0174
M73 Q0 S108
G1 X156.96 Y150.635 E.018
G1 X156.754 Y151.195 E.01874
G1 X156.551 Y151.589 E.01388
G1 X156.224 Y152.064 E.01807
G1 X155.829 Y152.494 E.01831
G1 X155.44 Y152.818 E.01588
G1 X154.999 Y153.102 E.01645
G1 X154.535 Y153.322 E.01612
G1 X154.014 Y153.493 E.01718
G1 X153.537 Y153.584 E.01521
G1 X153.022 Y153.62 E.0162
G1 X96.98 Y153.62 E1.75714
G1 X96.427 Y153.579 E.0174
G1 X95.871 Y153.461 E.01783
G1 X95.381 Y153.287 E.0163
G1 X94.876 Y153.029 E.01779
G1 X94.438 Y152.725 E.01672
G1 X94.039 Y152.363 E.01687
G1 X93.692 Y151.954 E.01682
G1 X93.399 Y151.501 E.01693
G1 X93.178 Y151.035 E.01618
G1 X93.007 Y150.514 E.01718
G1 X92.916 Y150.037 E.01522
G1 X92.88 Y149.519 E.01627
G1 X92.88 Y60.48 E2.79175
G1 X92.921 Y59.927 E.01739
G1 X93.039 Y59.371 E.01783
G1 X93.213 Y58.881 E.0163
G1 X93.422 Y58.471 E.01444
G1 X93.757 Y58.643 F10800
G1 F1350
G1 X94.077 Y58.164 E.01807
G1 X94.39 Y57.819 E.0146
G1 X94.762 Y57.501 E.01535
G1 X95.192 Y57.224 E.01603
G1 X95.615 Y57.024 E.01468
G1 X96.091 Y56.87 E.01568
G1 X96.5 Y56.792 E.01307
G1 X96.985 Y56.757 E.01523
G1 X153.02 Y56.758 E1.75694
G1 X153.375 Y56.777 E.01116
G1 X153.739 Y56.831 E.01152
G1 X154.076 Y56.916 E.01092
G1 X154.422 Y57.038 E.0115
G1 X154.754 Y57.194 E.01152
G1 X155.07 Y57.382 E.01151
G1 X155.35 Y57.587 E.01088
G1 X155.623 Y57.831 E.01147
G1 X155.872 Y58.101 E.01151
G1 X156.093 Y58.394 E.01152
G1 X156.285 Y58.707 E.01151
G1 X156.447 Y59.042 E.01167
G1 X156.637 Y59.618 E.01901
G1 X156.707 Y59.983 E.01167
G1 X156.739 Y60.347 E.01144
G1 X156.743 Y149.513 E2.79573
G1 X156.704 Y150.032 E.01632
G1 X156.594 Y150.541 E.01635
G1 X156.404 Y151.053 E.0171
G1 X156.222 Y151.404 E.01242
G1 X155.922 Y151.838 E.01654
G1 X155.561 Y152.228 E.01667
G1 X155.209 Y152.521 E.01435
G1 X154.807 Y152.777 E.01496
G1 X154.385 Y152.976 E.01462
G1 X153.909 Y153.13 E.01568
G1 X153.5 Y153.208 E.01307
G1 X153.015 Y153.243 E.01523
G1 X96.987 Y153.243 E1.75671
G1 X96.468 Y153.204 E.01632
G1 X95.963 Y153.095 E.01621
G1 X95.52 Y152.937 E.01475
G1 X95.06 Y152.7 E.01622
G1 X94.664 Y152.423 E.01516
G1 X94.319 Y152.11 E.01461
G1 X93.988 Y151.72 E.01603
G1 X93.724 Y151.308 E.01535
G1 X93.524 Y150.885 E.01467
G1 X93.37 Y150.409 E.01568
G1 X93.292 Y149.999 E.01308
G1 X93.257 Y149.513 E.0153
G1 X93.257 Y60.487 E2.79132
G1 X93.296 Y59.968 E.01632
G1 X93.405 Y59.463 E.01621
G1 X93.563 Y59.02 E.01475
G1 X93.73 Y58.696 E.01141
G1 X94.065 Y58.869 F10800
G1 F1350
G1 X94.129 Y58.744 E.00439
G1 X94.378 Y58.391 E.01357
G1 X94.644 Y58.098 E.01239
G1 X94.997 Y57.796 E.01455
G1 X95.384 Y57.548 E.01443
G1 X95.743 Y57.379 E.01243
G1 X96.196 Y57.232 E.01493
G1 X96.538 Y57.167 E.01093
G1 X96.992 Y57.135 E.01425
G1 X153.015 Y57.135 E1.75657
G1 X153.346 Y57.153 E.01038
G1 X153.672 Y57.203 E.01036
G1 X153.975 Y57.279 E.00979
G1 X154.286 Y57.39 E.01036
G1 X154.585 Y57.531 E.01036
G1 X154.868 Y57.701 E.01035
G1 X155.119 Y57.885 E.00976
G1 X155.364 Y58.105 E.01034
G1 X155.588 Y58.349 E.01036
G1 X155.786 Y58.613 E.01035
G1 X155.958 Y58.895 E.01035
G1 X156.102 Y59.194 E.01042
G1 X156.269 Y59.701 E.01674
G1 X156.332 Y60.028 E.01042
G1 X156.362 Y60.356 E.01033
G1 X156.366 Y149.505 E2.79523
G1 X156.329 Y149.99 E.01523
G1 X156.229 Y150.447 E.01467
G1 X156.056 Y150.909 E.01547
G1 X155.894 Y151.218 E.01095
G1 X155.62 Y151.611 E.01501
G1 X155.294 Y151.961 E.01501
G1 X154.978 Y152.222 E.01282
G1 X154.615 Y152.452 E.0135
G1 X154.257 Y152.621 E.0124
G1 X153.804 Y152.768 E.01493
G1 X153.462 Y152.833 E.01093
G1 X153.008 Y152.865 E.01425
G1 X96.995 Y152.866 E1.75627
G1 X96.51 Y152.829 E.01523
G1 X96.056 Y152.73 E.01459
G1 X95.682 Y152.596 E.01246
G1 X95.244 Y152.371 E.01541
G1 X94.891 Y152.122 E.01357
G1 X94.597 Y151.856 E.01242
G1 X94.298 Y151.506 E.01443
G1 X94.048 Y151.115 E.01455
G1 X93.879 Y150.757 E.0124
G1 X93.732 Y150.304 E.01493
G1 X93.667 Y149.962 E.01094
G1 X93.634 Y149.506 E.01433
G1 X93.634 Y60.495 E2.79088
G1 X93.671 Y60.01 E.01523
G1 X93.77 Y59.556 E.01459
G1 X93.904 Y59.182 E.01246
G1 X94.038 Y58.922 E.00914
G1 X94.373 Y59.093 F10800
G1 F1350
G1 X94.445 Y58.95 E.00503
G1 X94.68 Y58.617 E.01277
G1 X94.899 Y58.376 E.01022
G1 X95.211 Y58.107 E.01293
G1 X95.577 Y57.872 E.01362
G1 X95.871 Y57.733 E.01019
G1 X96.28 Y57.6 E.01347
G1 X96.577 Y57.542 E.0095
G1 X96.999 Y57.512 E.01325
G1 X153.01 Y57.512 E1.7562
G1 X153.299 Y57.527 E.00907
M73 P1 R107
M73 Q1 S108
G1 X153.589 Y57.57 E.0092
G1 X153.873 Y57.642 E.00919
G1 X154.149 Y57.742 E.00919
G1 X154.414 Y57.868 E.00919
G1 X154.665 Y58.019 E.0092
G1 X154.887 Y58.183 E.00863
G1 X155.105 Y58.379 E.0092
G1 X155.303 Y58.596 E.00919
G1 X155.478 Y58.83 E.00919
G1 X155.63 Y59.081 E.00919
G1 X155.756 Y59.346 E.00919
G1 X155.901 Y59.785 E.01451
G1 X155.957 Y60.073 E.00919
G1 X155.985 Y60.365 E.0092
G1 X155.988 Y149.499 E2.79474
G1 X155.958 Y149.923 E.01332
M73 P1 R106
G1 X155.864 Y150.352 E.01379
G1 X155.708 Y150.763 E.01378
G1 X155.566 Y151.031 E.00949
G1 X155.32 Y151.383 E.01349
G1 X155.028 Y151.694 E.01338
G1 X154.767 Y151.91 E.0106
G1 X154.423 Y152.127 E.01276
G1 X154.129 Y152.267 E.01021
G1 X153.72 Y152.4 E.01347
G1 X153.423 Y152.458 E.0095
G1 X153.001 Y152.488 E.01325
G1 X97.001 Y152.488 E1.75585
G1 X96.577 Y152.458 E.01332
G1 X96.148 Y152.364 E.01378
G1 X95.842 Y152.254 E.0102
G1 X95.45 Y152.055 E.01378
G1 X95.117 Y151.82 E.01277
G1 X94.876 Y151.601 E.0102
G1 X94.594 Y151.271 E.01363
G1 X94.373 Y150.923 E.01293
G1 X94.233 Y150.629 E.01021
G1 X94.1 Y150.22 E.01347
G1 X94.042 Y149.923 E.0095
G1 X94.012 Y149.499 E.01332
G1 X94.012 Y60.501 E2.79046
G1 X94.042 Y60.077 E.01332
G1 X94.136 Y59.648 E.01378
G1 X94.246 Y59.342 E.0102
G1 X94.345 Y59.147 E.00687
; printing object v24_bottom.obj id:0 copy 0
;WIPE_START
G1 F8640
G1 X94.445 Y58.95 E-.05089
G1 X94.68 Y58.617 E-.09408
G1 X94.899 Y58.376 E-.07527
G1 X95.211 Y58.107 E-.09521
G1 X95.577 Y57.872 E-.10033
G1 X95.871 Y57.733 E-.07508
G1 X96.28 Y57.6 E-.09922
G1 X96.577 Y57.542 E-.06995
G1 X96.999 Y57.512 E-.09757
G1 X97.009 Y57.512 E-.00239
;WIPE_END
G1 E-.04 F2100
G1 Z.6 F10800
G1 X95.423 Y60.081
G1 Z.2
G1 E.8 F2100
;TYPE:Perimeter
;WIDTH:0.419999
G1 F1215
G1 X95.533 Y59.792 E.00969
G1 X95.863 Y59.33 E.01779
G1 X96.106 Y59.139 E.0097
G1 X96.604 Y58.92 E.01705
G1 X97.061 Y58.864 E.01443
G1 X152.888 Y58.867 E1.75042
G1 X153.183 Y58.892 E.00928
G1 X153.636 Y59.007 E.01466
G1 X154.035 Y59.239 E.01447
G1 X154.348 Y59.596 E.01488
G1 X154.561 Y60.027 E.01507
G1 X154.636 Y60.567 E.01709
G1 X154.636 Y149.329 E2.78307
G1 X154.604 Y149.698 E.01161
M73 Q1 S107
G1 X154.509 Y150.125 E.01373
G1 X154.276 Y150.517 E.0143
G1 X153.871 Y150.876 E.01695
G1 X153.396 Y151.08 E.01621
G1 X152.939 Y151.136 E.01443
G1 X97.171 Y151.136 E1.74856
G1 X96.802 Y151.104 E.01162
G1 X96.397 Y151.016 E.013
G1 X95.916 Y150.715 E.0178
G1 X95.639 Y150.394 E.0133
G1 X95.42 Y149.896 E.01705
G1 X95.364 Y149.439 E.01443
G1 X95.364 Y60.671 E2.78325
G1 X95.417 Y60.141 E.01673
G1 X95.054 Y59.998 F10800
G1 F1215
G1 X95.269 Y59.479 E.01763
G1 X95.588 Y59.069 E.01629
G1 X96.04 Y58.734 E.01764
G1 X96.512 Y58.552 E.01585
G1 X97.038 Y58.487 E.01661
G1 X153.068 Y58.49 E1.7568
G1 X153.591 Y58.579 E.01661
G1 X154.098 Y58.828 E.01771
G1 X154.41 Y59.081 E.01262
G1 X154.661 Y59.386 E.01238
G1 X154.847 Y59.733 E.01233
G1 X154.962 Y60.108 E.01232
G1 X155.013 Y60.567 E.01445
G1 X155.013 Y149.329 E2.78307
G1 X154.97 Y149.815 E.0153
G1 X154.858 Y150.27 E.01469
G1 X154.656 Y150.633 E.01304
G1 X154.284 Y151.03 E.01707
G1 X153.96 Y151.266 E.01256
G1 X153.488 Y151.448 E.01585
G1 X152.962 Y151.513 E.01661
G1 X97.171 Y151.513 E1.74928
G1 X96.905 Y151.497 E.00837
G1 X96.371 Y151.404 E.017
G1 X95.956 Y151.199 E.01452
G1 X95.578 Y150.922 E.01469
G1 X95.234 Y150.46 E.01807
G1 X95.052 Y149.988 E.01585
G1 X94.987 Y149.462 E.01662
G1 X94.987 Y60.538 E2.78817
G1 X95.046 Y60.057 E.01517
G1 X94.684 Y59.915 F10800
;TYPE:External perimeter
G1 F675
G1 X94.859 Y59.453 E.01549
G1 X95.131 Y59.042 E.01546
G1 X95.464 Y58.678 E.01546
G1 X95.87 Y58.395 E.0155
G1 X96.419 Y58.183 E.01847
G1 X97.015 Y58.11 E.0188
G1 X153.1 Y58.113 E1.75853
G1 X153.696 Y58.215 E.01894
G1 X153.925 Y58.31 E.00777
G1 X154.307 Y58.514 E.0136
G1 X154.677 Y58.815 E.01493
G1 X154.975 Y59.177 E.0147
G1 X155.196 Y59.588 E.01465
G1 X155.331 Y60.035 E.01463
G1 X155.39 Y60.567 E.01677
G1 X155.39 Y149.485 E2.78799
G1 X155.316 Y150.085 E.01894
G1 X155.128 Y150.571 E.01635
G1 X154.85 Y151.012 E.01634
G1 X154.544 Y151.303 E.01325
G1 X154.13 Y151.605 E.01604
G1 X153.581 Y151.817 E.01847
G1 X152.985 Y151.89 E.0188
G1 X97.171 Y151.89 E1.75001
G1 X96.585 Y151.837 E.01846
G1 X96.09 Y151.709 E.01603
G1 X95.573 Y151.416 E.01862
G1 X95.196 Y151.056 E.01636
G1 X94.895 Y150.63 E.01635
G1 X94.683 Y150.081 E.01847
G1 X94.61 Y149.485 E.0188
G1 X94.61 Y60.515 E2.78962
G1 X94.676 Y59.975 E.01706
M73 P2 R105
M73 Q2 S107
G1 X95.068 Y59.804 F10800
;WIPE_START
G1 F8640
G1 X94.859 Y59.453 E-.12758
G1 X95.131 Y59.042 E-.11387
G1 X95.464 Y58.678 E-.11386
G1 X95.87 Y58.395 E-.11415
G1 X96.419 Y58.183 E-.13603
G1 X97.015 Y58.11 E-.13845
G1 X97.084 Y58.11 E-.01606
;WIPE_END
G1 E-.04 F2100
G1 Z.6 F10800
G1 X153.448 Y59.052
G1 Z.2
G1 E.8 F2100
;TYPE:Solid infill
;WIDTH:0.420055
G1 F2160
G1 X154.041 Y59.646 E.02632
G1 X154.188 Y59.865 E.00827
G1 X154.289 Y60.109 E.00828
G1 X154.351 Y60.489 E.01206
G1 X153.012 Y59.15 E.05936
G1 X152.479 Y59.15 E.01673
G1 X154.353 Y61.024 E.08311
G1 X154.353 Y61.557 E.01673
G1 X151.945 Y59.15 E.10677
G1 X151.412 Y59.15 E.01673
G1 X154.353 Y62.091 E.13042
G1 X154.353 Y62.624 E.01673
G1 X150.879 Y59.15 E.15408
G1 X150.345 Y59.15 E.01673
G1 X154.353 Y63.157 E.17773
G1 X154.353 Y63.691 E.01673
G1 X149.812 Y59.15 E.20139
G1 X149.279 Y59.15 E.01673
G1 X154.353 Y64.224 E.22504
G1 X154.353 Y64.758 E.01673
G1 X148.745 Y59.15 E.24869
G1 X148.212 Y59.15 E.01673
G1 X154.353 Y65.291 E.27235
G1 X154.353 Y65.824 E.01673
G1 X147.678 Y59.15 E.296
G1 X147.145 Y59.15 E.01673
G1 X154.353 Y66.358 E.31966
G1 X154.353 Y66.891 E.01673
G1 X146.612 Y59.15 E.34331
G1 X146.078 Y59.15 E.01673
G1 X154.353 Y67.424 E.36697
G1 X154.353 Y67.958 E.01673
G1 X145.545 Y59.15 E.39062
G1 X145.012 Y59.15 E.01673
G1 X154.353 Y68.491 E.41427
G1 X154.353 Y69.024 E.01673
G1 X144.478 Y59.15 E.43793
G1 X143.945 Y59.15 E.01673
G1 X154.353 Y69.558 E.46158
G1 X154.353 Y70.091 E.01673
G1 X143.411 Y59.149 E.48524
G1 X142.878 Y59.149 E.01673
G1 X154.353 Y70.624 E.50889
G1 X154.353 Y71.158 E.01673
G1 X142.345 Y59.149 E.53255
G1 X141.811 Y59.149 E.01673
G1 X154.353 Y71.691 E.5562
G1 X154.353 Y72.224 E.01673
G1 X141.278 Y59.149 E.57985
G1 X140.745 Y59.149 E.01673
G1 X154.353 Y72.758 E.60351
G1 X154.353 Y73.291 E.01673
G1 X140.211 Y59.149 E.62716
G1 X139.678 Y59.149 E.01673
G1 X154.353 Y73.824 E.65082
G1 X154.353 Y74.358 E.01673
M73 Q2 S106
G1 X139.144 Y59.149 E.67447
G1 X138.611 Y59.149 E.01673
G1 X154.353 Y74.891 E.69813
G1 X154.353 Y75.425 E.01673
G1 X138.078 Y59.149 E.72178
G1 X137.544 Y59.149 E.01673
G1 X154.353 Y75.958 E.74543
G1 X154.353 Y76.491 E.01673
G1 X137.011 Y59.149 E.76909
G1 X136.478 Y59.149 E.01673
G1 X154.353 Y77.025 E.79274
G1 X154.353 Y77.558 E.01673
G1 X135.944 Y59.149 E.8164
G1 X135.411 Y59.149 E.01673
G1 X154.353 Y78.091 E.84005
G1 X154.353 Y78.625 E.01673
G1 X134.877 Y59.149 E.86371
G1 X134.344 Y59.149 E.01673
G1 X154.353 Y79.158 E.88736
G1 X154.353 Y79.691 E.01673
G1 X133.811 Y59.149 E.91101
G1 X133.277 Y59.149 E.01673
G1 X154.353 Y80.225 E.93467
G1 X154.353 Y80.758 E.01673
G1 X132.744 Y59.149 E.95832
G1 X132.21 Y59.149 E.01673
G1 X154.353 Y81.291 E.98198
G1 X154.353 Y81.825 E.01673
G1 X131.677 Y59.149 E1.00563
G1 X131.144 Y59.149 E.01673
G1 X154.353 Y82.358 E1.02929
G1 X154.353 Y82.891 E.01673
G1 X130.61 Y59.149 E1.05294
G1 X130.077 Y59.149 E.01673
G1 X154.353 Y83.425 E1.0766
G1 X154.353 Y83.958 E.01673
G1 X129.544 Y59.149 E1.10025
G1 X129.01 Y59.149 E.01673
G1 X154.353 Y84.491 E1.1239
G1 X154.353 Y85.025 E.01673
G1 X128.477 Y59.149 E1.14756
G1 X127.943 Y59.149 E.01673
G1 X154.353 Y85.558 E1.17121
G1 X154.353 Y86.092 E.01673
G1 X127.41 Y59.149 E1.19487
G1 X126.877 Y59.149 E.01673
G1 X154.353 Y86.625 E1.21852
G1 X154.353 Y87.158 E.01673
G1 X126.343 Y59.149 E1.24218
G1 X125.81 Y59.149 E.01673
