; generated by PrusaSlicer 2.5.0+win64 on 2022-11-11 at 18:16:36 UTC

; 

; external perimeters extrusion width = 0.45mm
; perimeters extrusion width = 0.45mm
; infill extrusion width = 0.45mm
; solid infill extrusion width = 0.45mm
; top infill extrusion width = 0.40mm
; support material extrusion width = 0.35mm
; first layer extrusion width = 0.42mm

M73 P0 R0
M73 Q0 S0
M201 X1000 Y1000 Z200 E5000 ; sets maximum accelerations, mm/sec^2
M203 X200 Y200 Z12 E120 ; sets maximum feedrates, mm / sec
M204 P1250 R1250 T1250 ; sets acceleration (P, T) and retract acceleration (R), mm/sec^2
M205 X8.00 Y8.00 Z0.40 E4.50 ; sets the jerk limits, mm/sec
M205 S0 T0 ; sets the minimum extruding and travel feed rate, mm/sec
M107
;TYPE:Custom
M862.3 P "MK3S" ; printer model check
M862.1 P0.4 ; nozzle diameter check
M115 U3.9.3 ; tell printer latest fw version
G90 ; use absolute coordinates
M83 ; extruder relative mode
M104 S215 ; set extruder temp
M140 S70 ; set bed temp
M190 S70 ; wait for bed temp
M109 S215 ; wait for extruder temp
G28 W ; home all without mesh bed level
G80 ; mesh bed leveling
G1 Y-3.0 F1000.0 ; go outside print area
G92 E0.0
G1 X60.0 E9.0 F1000.0 ; intro line
G1 X100.0 E12.5 F1000.0 ; intro line
G92 E0.0
M221 S95

; Don't change E values below. Excessive value can damage the printer.

G21 ; set units to millimeters
G90 ; use absolute coordinates
M83 ; use relative distances for extrusion
M900 K30 ; Filament gcode
M107
;LAYER_CHANGE
;Z:0.2
;HEIGHT:0.2
;BEFORE_LAYER_CHANGE
G92 E0.0
;0.2


M73 P8 R0
M73 Q8 S0
G1 E-.8 F2100
M73 P13 R0
M73 Q13 S0
G1 Z.4 F10800
;AFTER_LAYER_CHANGE
;0.2
G1 X120.636 Y103.628
G1 Z.2
M73 P15 R0
M73 Q16 S0
G1 E.8 F2100
M204 S1000
;TYPE:Skirt/Brim
;WIDTH:0.42
G1 F1350
G1 X121.081 Y103.111 E.02138
G1 X121.52 Y102.802 E.01683
G1 X122.054 Y102.577 E.01817
G1 X122.693 Y102.478 E.02027
G1 X127.318 Y102.479 E.14501
G1 X127.797 Y102.539 E.01515
M73 P16 R0
M73 Q17 S0
G1 X128.284 Y102.698 E.01606
G1 X129 Y103.185 E.02717
G1 X129.324 Y103.566 E.01569
G1 X129.552 Y103.966 E.01442
G1 X129.75 Y104.685 E.02337
G1 X129.759 Y105.245 E.01758
G1 X129.66 Y105.746 E.01599
G1 X129.361 Y106.376 E.02188
G1 X129.004 Y106.811 E.01765
G1 X128.527 Y107.174 E.01878
M73 P17 R0
G1 X127.94 Y107.424 E.02
G1 X127.307 Y107.522 E.0201
G1 X122.662 Y107.52 E.14563
G1 X122.214 Y107.463 E.01417
M73 Q18 S0
G1 X121.597 Y107.242 E.02056
G1 X121.041 Y106.854 E.02124
G1 X120.622 Y106.348 E.02061
G1 X120.384 Y105.873 E.01666
G1 X120.249 Y105.316 E.01796
G1 X120.241 Y104.756 E.01758
M73 P18 R0
G1 X120.356 Y104.21 E.01747
G1 X120.61 Y103.682 E.01839
G1 X120.938 Y103.855 F10800
G1 F1350
G1 X121.35 Y103.376 E.01979
G1 X121.716 Y103.125 E.01392
G1 X122.176 Y102.935 E.0156
G1 X122.706 Y102.855 E.01683
M73 Q19 S0
G1 X127.305 Y102.856 E.1442
G1 X127.73 Y102.91 E.01342
G1 X128.137 Y103.047 E.01347
G1 X128.763 Y103.479 E.02385
G1 X129.022 Y103.792 E.01273
M73 P19 R0
G1 X129.211 Y104.129 E.01211
G1 X129.38 Y104.757 E.0204
G1 X129.382 Y105.226 E.0147
G1 X129.296 Y105.645 E.01342
G1 X129.033 Y106.189 E.01896
G1 X128.73 Y106.552 E.0148
G1 X128.321 Y106.858 E.01601
M73 Q20 S0
G1 X127.818 Y107.067 E.01708
G1 X127.293 Y107.145 E.01664
G1 X122.694 Y107.144 E.14422
G1 X122.316 Y107.1 E.01191
G1 X121.787 Y106.916 E.01757
M73 P20 R0
G1 X121.312 Y106.59 E.01806
G1 X120.949 Y106.159 E.01768
G1 X120.732 Y105.724 E.01522
G1 X120.621 Y105.252 E.01522
G1 X120.618 Y104.775 E.01494
G1 X120.719 Y104.313 E.01485
G1 X120.912 Y103.909 E.01403
G1 X121.24 Y104.081 F10800
M73 Q21 S0
G1 F1350
G1 X121.618 Y103.643 E.01814
G1 X121.909 Y103.449 E.01096
G1 X122.256 Y103.304 E.0118
G1 X122.721 Y103.232 E.01474
G1 X127.293 Y103.233 E.14334
G1 X127.661 Y103.281 E.01165
M73 P21 R0
G1 X127.989 Y103.394 E.01089
G1 X128.491 Y103.741 E.01912
G1 X128.702 Y103.993 E.01029
G1 X128.87 Y104.291 E.01075
G1 X129.008 Y104.826 E.01732
G1 X129.006 Y105.202 E.01179
G1 X128.933 Y105.542 E.01089
M73 Q22 S0
G1 X128.706 Y106 E.01602
G1 X128.457 Y106.29 E.012
G1 X128.151 Y106.521 E.01202
G1 X127.737 Y106.698 E.01414
G1 X127.279 Y106.768 E.01452
G1 X122.722 Y106.768 E.14287
G1 X122.415 Y106.736 E.00968
M73 P22 R0
G1 X121.974 Y106.587 E.01458
G1 X121.58 Y106.324 E.01486
G1 X121.275 Y105.969 E.01467
G1 X121.08 Y105.577 E.01372
G1 X120.994 Y105.192 E.01239
G1 X120.995 Y104.799 E.01232
G1 X121.082 Y104.417 E.01229
G1 X121.215 Y104.135 E.00976
M73 Q23 S0
G1 X121.553 Y104.3 F10800
G1 F1350
G1 X121.849 Y103.942 E.01454
G1 X122.102 Y103.774 E.00953
G1 X122.376 Y103.662 E.00928
G1 X122.734 Y103.609 E.01135
G1 X127.281 Y103.61 E.14258
G1 X127.557 Y103.644 E.00872
M73 P23 R0
G1 X127.842 Y103.743 E.00945
G1 X128.218 Y104.003 E.01434
G1 X128.4 Y104.22 E.00889
G1 X128.527 Y104.451 E.00828
G1 X128.631 Y104.852 E.01298
G1 X128.632 Y105.144 E.00915
G1 X128.569 Y105.438 E.00942
G1 X128.382 Y105.805 E.01294
G1 X128.189 Y106.024 E.00915
G1 X127.947 Y106.202 E.00942
M73 Q24 S0
G1 X127.616 Y106.34 E.01127
G1 X127.266 Y106.391 E.01107
G1 X122.733 Y106.391 E.14214
G1 X122.478 Y106.363 E.00803
G1 X122.124 Y106.24 E.01175
M73 P24 R0
G1 X121.817 Y106.029 E.01168
G1 X121.581 Y105.747 E.01154
G1 X121.43 Y105.436 E.01084
G1 X121.367 Y105.137 E.00958
G1 X121.371 Y104.827 E.00971
G1 X121.443 Y104.527 E.00968
G1 X121.527 Y104.354 E.00603
G1 X121.866 Y104.518 F10800
G1 F1350
G1 X121.897 Y104.455 E.00221
G1 X122.083 Y104.239 E.00895
G1 X122.263 Y104.115 E.00686
G1 X122.495 Y104.021 E.00784
G1 X122.746 Y103.986 E.00794
G1 X127.269 Y103.987 E.14181
G1 X127.487 Y104.016 E.0069
M73 Q25 S0
G1 X127.691 Y104.089 E.00679
G1 X127.949 Y104.267 E.00985
G1 X128.08 Y104.42 E.00629
G1 X128.184 Y104.61 E.00681
G1 X128.259 Y104.915 E.00985
G1 X128.256 Y105.116 E.00629
M73 P25 R0
G1 X128.208 Y105.328 E.00681
G1 X128.061 Y105.606 E.00985
G1 X127.926 Y105.754 E.00629
G1 X127.748 Y105.882 E.00687
G1 X127.5 Y105.981 E.0084
G1 X127.255 Y106.014 E.00775
G1 X122.743 Y106.014 E.14144
G1 X122.54 Y105.991 E.00641
M73 Q26 S0
G1 X122.31 Y105.912 E.00763
G1 X122.084 Y105.762 E.00851
G1 X121.906 Y105.555 E.00856
G1 X121.792 Y105.328 E.00796
G1 X121.744 Y105.113 E.0069
G1 X121.744 Y104.887 E.00711
G1 X121.793 Y104.67 E.00695
G1 X121.84 Y104.572 E.00342
; printing object v24_button.obj id:0 copy 0
G1 X122.344 Y105.049 F10800
;TYPE:External perimeter
;WIDTH:0.419999
G1 F675
G1 X122.365 Y104.865 E.00583
G1 X122.48 Y104.693 E.00647
G1 X122.763 Y104.585 E.00949
G1 X127.176 Y104.585 E.13836
M73 P26 R0
G1 X127.341 Y104.613 E.00525
M73 Q27 S0
G1 X127.514 Y104.706 E.00616
G1 X127.624 Y104.864 E.00603
G1 X127.646 Y105.043 E.00566
M73 P27 R0
G1 X127.635 Y105.135 E.00292
G1 X127.52 Y105.307 E.00647
G1 X127.237 Y105.415 E.00949
G1 X122.825 Y105.415 E.13836
G1 X122.561 Y105.363 E.00842
M73 P28 R0
M73 Q28 S0
G1 X122.409 Y105.224 E.00647
G1 X122.365 Y105.106 E.00395
G1 X122.492 Y104.937 F10800
G1 X122.825 Y105
;TYPE:Perimeter
;WIDTH:0.495842
G1 F1215
G1 X127.176 Y105 E.16386
; stop printing object v24_button.obj id:0 copy 0
M106 S255
;LAYER_CHANGE
;Z:0.35
;HEIGHT:0.15
;BEFORE_LAYER_CHANGE
G92 E0.0
;0.35


;WIPE_START
G1 F8640
M73 Q29 S0
G1 X123.884 Y105 E-.76
;WIPE_END
G1 E-.04 F2100
G1 Z.6 F10800
;AFTER_LAYER_CHANGE
;0.35
M140 S65 ; set bed temperature
; printing object v24_button.obj id:0 copy 0
G1 X122.359 Y105.047
M73 P29 R0
G1 Z.35
G1 E.8 F2100
M204 S800
;TYPE:External perimeter
;WIDTH:0.449999
G1 F1500
G1 X122.382 Y104.86 E.00491
G1 X122.489 Y104.705 E.00491
M73 Q30 S0
G1 X122.764 Y104.6 E.00766
G1 X127.175 Y104.6 E.11494
G1 X127.342 Y104.629 E.0044
G1 X127.504 Y104.714 E.00477
G1 X127.607 Y104.864 E.00476
G1 X127.629 Y105.046 E.00477
M73 P30 R0
G1 X127.618 Y105.14 E.00246
G1 X127.511 Y105.295 E.00491
G1 X127.236 Y105.4 E.00766
G1 X122.825 Y105.4 E.11494
G1 X122.567 Y105.348 E.00686
G1 X122.426 Y105.224 E.00491
M73 Q31 S0
G1 X122.381 Y105.104 E.00335
M204 S1000
G1 X122.51 Y104.934 F10800
;WIPE_START
G1 F8640
G1 X122.382 Y104.86 E-.05614
G1 X122.489 Y104.705 E-.0435
G1 X122.764 Y104.6 E-.06792
G1 X125.329 Y104.6 E-.59243
;WIPE_END
G1 E-.04 F2100
G1 Z.75 F10800
G1 X127.175 Y105
M73 P31 R0
G1 Z.35
G1 E.8 F2100
M204 S800
;TYPE:Perimeter
;WIDTH:0.414382
G1 F2700
G1 X122.825 Y105 E.10368
M204 S1000
; stop printing object v24_button.obj id:0 copy 0
;LAYER_CHANGE
;Z:0.5
;HEIGHT:0.15
;BEFORE_LAYER_CHANGE
G92 E0.0
;0.5


;WIPE_START
G1 F8640
M73 Q32 S0
G1 X126.116 Y105 E-.76
;WIPE_END
G1 E-.04 F2100
G1 Z.75 F10800
;AFTER_LAYER_CHANGE
;0.5
; printing object v24_button.obj id:0 copy 0
M73 P32 R0
G1 X127.629 Y104.954
G1 Z.5
G1 E.8 F2100
M204 S800
;TYPE:External perimeter
;WIDTH:0.449999
G1 F1500
G1 X127.641 Y105.047 E.00245
G1 X127.574 Y105.224 E.00491
M73 Q33 S0
G1 X127.433 Y105.349 E.00491
G1 X127.224 Y105.4 E.00562
G1 X122.825 Y105.4 E.11462
G1 X122.554 Y105.345 E.00719
G1 X122.382 Y105.14 E.00699
M73 P33 R0
G1 X122.359 Y104.953 E.00491
G1 X122.426 Y104.776 E.00491
G1 X122.567 Y104.651 E.00491
G1 X122.776 Y104.6 E.00561
G1 X127.177 Y104.612 E.11467
G1 X127.441 Y104.651 E.00695
G1 X127.552 Y104.765 E.00414
M73 Q34 S0
G1 X127.607 Y104.898 E.00376
M204 S1000
G1 X127.563 Y105.021 F10800
;WIPE_START
G1 F8640
G1 X127.641 Y105.047 E-.03528
G1 X127.574 Y105.224 E-.0435
G1 X127.433 Y105.349 E-.04349
G1 X127.224 Y105.4 E-.04976
G1 X124.677 Y105.4 E-.58796
;WIPE_END
G1 E-.04 F2100
G1 Z.9 F10800
G1 X122.825 Y105
M73 P34 R0
G1 Z.5
G1 E.8 F2100
M204 S800
;TYPE:Perimeter
;WIDTH:0.414184
G1 F2700
G1 X127.176 Y105.006 E.10365
M204 S1000
; stop printing object v24_button.obj id:0 copy 0
;LAYER_CHANGE
;Z:0.65
;HEIGHT:0.15
;BEFORE_LAYER_CHANGE
G92 E0.0
;0.65


;WIPE_START
G1 F8640
M73 Q35 S0
G1 X123.884 Y105.001 E-.76
;WIPE_END
G1 E-.04 F2100
M73 P35 R0
G1 Z.9 F10800
;AFTER_LAYER_CHANGE
;0.65
; printing object v24_button.obj id:0 copy 0
G1 X122.382 Y105.14
G1 Z.65
G1 E.8 F2100
M204 S800
;TYPE:External perimeter
;WIDTH:0.449999
G1 F1500
G1 X122.359 Y104.953 E.00491
G1 X122.426 Y104.776 E.00491
M73 Q36 S0
G1 X122.567 Y104.651 E.00491
G1 X122.776 Y104.6 E.00561
G1 X127.177 Y104.609 E.11466
G1 X127.442 Y104.652 E.00701
M73 P36 R0
G1 X127.56 Y104.776 E.00445
G1 X127.629 Y104.954 E.00497
G1 X127.641 Y105.047 E.00245
G1 X127.574 Y105.224 E.00491
G1 X127.433 Y105.349 E.00491
G1 X127.224 Y105.4 E.00562
G1 X122.825 Y105.4 E.11461
G1 X122.554 Y105.345 E.00721
G1 X122.42 Y105.186 E.00543
M204 S1000
M73 Q37 S0
G1 X122.491 Y104.986 F10800
G1 X122.825 Y105
M204 S800
;TYPE:Perimeter
;WIDTH:0.414218
G1 F2700
G1 X127.176 Y105.005 E.10365
M204 S1000
; stop printing object v24_button.obj id:0 copy 0
;LAYER_CHANGE
;Z:0.8
;HEIGHT:0.15
;BEFORE_LAYER_CHANGE
G92 E0.0
;0.8


;WIPE_START
G1 F8640
G1 X123.884 Y105.001 E-.76
;WIPE_END
G1 E-.04 F2100
M73 P37 R0
G1 Z1.05 F10800
;AFTER_LAYER_CHANGE
;0.8
; printing object v24_button.obj id:0 copy 0
G1 X122.359 Y105.047
G1 Z.8
G1 E.8 F2100
M204 S800
;TYPE:External perimeter
;WIDTH:0.449999
M73 Q38 S0
G1 F1500
G1 X122.382 Y104.86 E.0049
G1 X122.489 Y104.705 E.00491
G1 X122.763 Y104.6 E.00766
G1 X127.213 Y104.607 E.11594
G1 X127.335 Y104.622 E.00319
M73 P38 R0
G1 X127.497 Y104.708 E.00478
G1 X127.607 Y104.865 E.00499
G1 X127.629 Y105.046 E.00477
G1 X127.618 Y105.14 E.00245
G1 X127.511 Y105.295 E.00491
G1 X127.236 Y105.4 E.00766
G1 X122.825 Y105.4 E.11495
G1 X122.567 Y105.349 E.00685
M73 Q39 S0
G1 X122.426 Y105.224 E.00491
G1 X122.38 Y105.103 E.00336
M204 S1000
G1 X122.51 Y104.934 F10800
;WIPE_START
G1 F8640
G1 X122.382 Y104.86 E-.05603
G1 X122.489 Y104.705 E-.04351
G1 X122.763 Y104.6 E-.06788
G1 X125.33 Y104.604 E-.59258
;WIPE_END
G1 E-.04 F2100
M73 P39 R0
G1 Z1.2 F10800
G1 X127.213 Y105.004
G1 Z.8
G1 E.8 F2100
M204 S800
;TYPE:Perimeter
;WIDTH:0.406918
M73 Q40 S0
G1 F2700
G1 X127.212 Y105.004 E.00001
;WIDTH:0.414256
G1 X122.825 Y105 E.10454
M204 S1000
; stop printing object v24_button.obj id:0 copy 0
;LAYER_CHANGE
;Z:0.95
;HEIGHT:0.15
;BEFORE_LAYER_CHANGE
G92 E0.0
;0.95


;WIPE_START
G1 F8640
G1 X126.116 Y105.003 E-.76
;WIPE_END
G1 E-.04 F2100
M73 P40 R0
G1 Z1.2 F10800
;AFTER_LAYER_CHANGE
;0.95
; printing object v24_button.obj id:0 copy 0
G1 X127.629 Y105.046
G1 Z.95
G1 E.8 F2100
M204 S800
;TYPE:External perimeter
;WIDTH:0.449999
M73 Q41 S0
G1 F1500
G1 X127.618 Y105.14 E.00246
G1 X127.511 Y105.295 E.00491
G1 X127.236 Y105.4 E.00766
G1 X122.825 Y105.4 E.11495
G1 X122.567 Y105.349 E.00685
M73 P41 R0
G1 X122.426 Y105.224 E.00491
G1 X122.359 Y105.047 E.00491
G1 X122.382 Y104.86 E.00491
G1 X122.489 Y104.705 E.00491
G1 X122.763 Y104.6 E.00766
G1 X127.213 Y104.605 E.11593
G1 X127.317 Y104.619 E.00273
M73 Q42 S0
G1 X127.499 Y104.71 E.00531
G1 X127.607 Y104.865 E.00491
G1 X127.622 Y104.986 E.0032
M204 S1000
G1 X127.55 Y105.097 F10800
;WIPE_START
G1 F8640
G1 X127.618 Y105.14 E-.0354
G1 X127.511 Y105.295 E-.04349
G1 X127.236 Y105.4 E-.06792
G1 X124.581 Y105.4 E-.61318
;WIPE_END
G1 E-.04 F2100
M73 P42 R0
G1 Z1.35 F10800
G1 X122.825 Y105
G1 Z.95
G1 E.8 F2100
M204 S800
;TYPE:Perimeter
;WIDTH:0.414292
G1 F2700
M73 Q43 S0
G1 X127.212 Y105.003 E.10455
M204 S1000
; stop printing object v24_button.obj id:0 copy 0
;LAYER_CHANGE
;Z:1.1
;HEIGHT:0.15
;BEFORE_LAYER_CHANGE
G92 E0.0
;1.1


;WIPE_START
G1 F8640
G1 X123.921 Y105.001 E-.76
;WIPE_END
G1 E-.04 F2100
M73 P43 R0
G1 Z1.35 F10800
;AFTER_LAYER_CHANGE
;1.1
; printing object v24_button.obj id:0 copy 0
G1 X122.359 Y105.048
G1 Z1.1
G1 E.8 F2100
M204 S800
;TYPE:External perimeter
;WIDTH:0.449999
M73 Q44 S0
G1 F1500
G1 X122.382 Y104.86 E.00492
G1 X122.489 Y104.705 E.00491
G1 X122.764 Y104.6 E.00766
G1 X127.199 Y104.603 E.11556
G1 X127.312 Y104.619 E.00298
M73 P44 R0
G1 X127.501 Y104.712 E.00549
G1 X127.607 Y104.864 E.00484
G1 X127.629 Y105.046 E.00476
G1 X127.618 Y105.14 E.00247
G1 X127.511 Y105.295 E.00491
G1 X127.236 Y105.4 E.00766
G1 X122.825 Y105.4 E.11495
G1 X122.567 Y105.349 E.00685
M73 Q45 S0
G1 X122.426 Y105.224 E.00491
G1 X122.381 Y105.104 E.00334
M204 S1000
G1 X122.51 Y104.934 F10800
G1 X122.825 Y105
M204 S800
;TYPE:Perimeter
;WIDTH:0.414326
G1 F2700
G1 X127.198 Y105.002 E.10423
M204 S1000
; stop printing object v24_button.obj id:0 copy 0
;LAYER_CHANGE
;Z:1.25
;HEIGHT:0.15
;BEFORE_LAYER_CHANGE
G92 E0.0
;1.25


;WIPE_START
G1 F8640
M73 P45 R0
G1 X123.907 Y105 E-.76
;WIPE_END
G1 E-.04 F2100
G1 Z1.5 F10800
;AFTER_LAYER_CHANGE
;1.25
; printing object v24_button.obj id:0 copy 0
G1 X122.489 Y104.705
G1 Z1.25
M73 Q46 S0
G1 E.8 F2100
M204 S800
;TYPE:External perimeter
;WIDTH:0.449999
G1 F1500
G1 X122.764 Y104.6 E.00766
G1 X127.183 Y104.601 E.11515
G1 X127.342 Y104.628 E.0042
M73 P46 R0
G1 X127.503 Y104.713 E.00474
G1 X127.607 Y104.864 E.00479
G1 X127.629 Y105.046 E.00476
G1 X127.618 Y105.14 E.00246
G1 X127.511 Y105.295 E.00491
G1 X127.236 Y105.4 E.00766
G1 X122.825 Y105.4 E.11495
G1 X122.567 Y105.349 E.00685
M73 Q47 S0
G1 X122.426 Y105.224 E.00491
G1 X122.359 Y105.047 E.00491
G1 X122.382 Y104.86 E.00491
G1 X122.455 Y104.755 E.00335
M204 S1000
G1 X122.76 Y104.82 F10800
;WIPE_START
G1 F8640
G1 X122.764 Y104.6 E-.07973
G1 X125.71 Y104.601 E-.68027
;WIPE_END
M73 P47 R0
G1 E-.04 F2100
G1 Z1.65 F10800
G1 X127.183 Y105.001
G1 Z1.25
G1 E.8 F2100
M204 S800
;TYPE:Perimeter
;WIDTH:0.414364
M73 Q48 S0
G1 F2700
G1 X122.825 Y105 E.10387
M204 S1000
; stop printing object v24_button.obj id:0 copy 0
;LAYER_CHANGE
;Z:1.4
;HEIGHT:0.15
;BEFORE_LAYER_CHANGE
G92 E0.0
;1.4


;WIPE_START
G1 F8640
M73 P48 R0
G1 X126.116 Y105 E-.76
;WIPE_END
G1 E-.04 F2100
G1 Z1.65 F10800
;AFTER_LAYER_CHANGE
;1.4
; printing object v24_button.obj id:0 copy 0
G1 X126.88 Y105.044
G1 Z1.4
M73 Q49 S0
G1 E.8 F2100
M204 S800
;TYPE:External perimeter
;WIDTH:0.449999
G1 F1500
G1 X126.869 Y105.136 E.0024
G1 X126.76 Y105.295 E.00502
G1 X126.486 Y105.4 E.00765
G1 X123.575 Y105.4 E.07586
G1 X123.317 Y105.349 E.00685
M73 P49 R0
G1 X123.176 Y105.224 E.00491
G1 X123.109 Y105.047 E.00491
G1 X123.131 Y104.864 E.0048
G1 X123.24 Y104.705 E.00502
G1 X123.514 Y104.6 E.00765
G1 X126.425 Y104.6 E.07586
G1 X126.589 Y104.628 E.00434
G1 X126.753 Y104.714 E.00482
G1 X126.857 Y104.864 E.00476
G1 X126.872 Y104.985 E.00317
M204 S1000
G1 X126.802 Y105.094 F10800
;WIPE_START
M73 Q50 S0
G1 F8640
G1 X126.869 Y105.136 E-.03486
G1 X126.76 Y105.295 E-.04446
G1 X126.486 Y105.4 E-.06778
G1 X123.832 Y105.4 E-.61291
