; generated by PrusaSlicer 2.5.0+win64 on 2022-11-25 at 02:58:37 UTC

; 

; external perimeters extrusion width = 0.45mm
; perimeters extrusion width = 0.45mm
; infill extrusion width = 0.45mm
; solid infill extrusion width = 0.45mm
; top infill extrusion width = 0.40mm
; support material extrusion width = 0.35mm
; first layer extrusion width = 0.42mm

M73 P0 R54
M73 Q0 S55
M201 X1000 Y1000 Z200 E5000 ; sets maximum accelerations, mm/sec^2
M203 X200 Y200 Z12 E120 ; sets maximum feedrates, mm / sec
M204 P1250 R1250 T1250 ; sets acceleration (P, T) and retract acceleration (R), mm/sec^2
M205 X8.00 Y8.00 Z0.40 E4.50 ; sets the jerk limits, mm/sec
M205 S0 T0 ; sets the minimum extruding and travel feed rate, mm/sec
M107
;TYPE:Custom
M862.3 P "MK3S" ; printer model check
M862.1 P0.4 ; nozzle diameter check
M115 U3.9.3 ; tell printer latest fw version
G90 ; use absolute coordinates
M83 ; extruder relative mode
M104 S215 ; set extruder temp
M140 S70 ; set bed temp
M190 S70 ; wait for bed temp
M109 S215 ; wait for extruder temp
G28 W ; home all without mesh bed level
G80 ; mesh bed leveling
G1 Y-3.0 F1000.0 ; go outside print area
G92 E0.0
G1 X60.0 E9.0 F1000.0 ; intro line
G1 X100.0 E12.5 F1000.0 ; intro line
G92 E0.0
M221 S95

; Don't change E values below. Excessive value can damage the printer.

G21 ; set units to millimeters
G90 ; use absolute coordinates
M83 ; use relative distances for extrusion
M900 K30 ; Filament gcode
M107
;LAYER_CHANGE
;Z:0.2
;HEIGHT:0.2
;BEFORE_LAYER_CHANGE
G92 E0.0
;0.2


G1 E-.8 F2100
G1 Z.4 F10800
;AFTER_LAYER_CHANGE
;0.2
G1 X128.249 Y107.519
G1 Z.2
M73 Q0 S54
G1 E.8 F2100
M204 S1000
;TYPE:Skirt/Brim
;WIDTH:0.42
G1 F1350
G1 X128.674 Y107.114 E.01841
G1 X128.916 Y106.974 E.00876
G1 X129.298 Y106.837 E.01273
G1 X132.27 Y106.818 E.0932
G1 X132.553 Y106.895 E.00919
G1 X133.068 Y107.176 E.01837
G1 X133.413 Y107.521 E.01533
G1 X133.565 Y107.728 E.00804
G1 X133.77 Y108.24 E.01729
G1 X133.807 Y111.18 E.0922
G1 X133.721 Y111.58 E.0128
G1 X133.547 Y111.948 E.01276
G1 X133.096 Y112.446 E.02108
G1 X132.88 Y112.607 E.00844
G1 X132.168 Y112.847 E.02354
G1 X129.491 Y112.847 E.08395
G1 X128.78 Y112.607 E.02355
G1 X128.569 Y112.451 E.00822
G1 X128.164 Y112.026 E.01842
G1 X128.019 Y111.771 E.00919
G1 X127.853 Y111.209 E.01838
G1 X127.853 Y108.441 E.08677
G1 X128.093 Y107.73 E.02355
G1 X128.213 Y107.567 E.00634
G1 X128.517 Y107.787 F10800
G1 F1350
G1 X128.887 Y107.425 E.01622
G1 X129.061 Y107.322 E.00634
G1 X129.395 Y107.202 E.01112
G1 X132.201 Y107.189 E.08799
G1 X132.399 Y107.24 E.00641
G1 X132.822 Y107.463 E.015
G1 X133.136 Y107.777 E.01391
G1 X133.245 Y107.928 E.00584
G1 X133.406 Y108.343 E.01397
G1 X133.429 Y111.163 E.0884
G1 X133.371 Y111.438 E.00884
G1 X133.219 Y111.759 E.01113
G1 X132.834 Y112.175 E.01776
G1 X132.682 Y112.285 E.00587
G1 X132.137 Y112.47 E.01805
G1 X129.522 Y112.47 E.08199
G1 X128.977 Y112.285 E.01806
G1 X128.827 Y112.176 E.00581
G1 X128.476 Y111.813 E.01583
G1 X128.371 Y111.636 E.00644
G1 X128.23 Y111.179 E.015
G1 X128.23 Y108.472 E.08487
G1 X128.416 Y107.927 E.01806
G1 X128.482 Y107.835 E.00355
G1 X128.789 Y108.051 F10800
G1 F1350
G1 X129.106 Y107.733 E.01406
G1 X129.208 Y107.67 E.00379
G1 X129.492 Y107.568 E.00943
G1 X132.138 Y107.561 E.08298
G1 X132.252 Y107.588 E.00368
G1 X132.578 Y107.752 E.01143
G1 X132.857 Y108.031 E.01237
G1 X132.921 Y108.123 E.00352
G1 X133.041 Y108.443 E.0107
G1 X133.052 Y111.144 E.08471
G1 X133.02 Y111.298 E.00491
G1 X132.892 Y111.569 E.00942
G1 X132.576 Y111.899 E.0143
G1 X132.488 Y111.961 E.00338
G1 X132.106 Y112.093 E.01269
G1 X129.554 Y112.093 E.08
G1 X129.171 Y111.961 E.0127
G1 X129.082 Y111.898 E.00342
G1 X128.783 Y111.595 E.01335
G1 X128.721 Y111.494 E.00371
G1 X128.607 Y111.147 E.01144
G1 X128.607 Y108.504 E.08288
G1 X128.754 Y108.1 E.01348
G1 X129.067 Y108.309 F10800
G1 F1350
G1 X129.333 Y108.034 E.01201
G1 X129.588 Y107.934 E.00856
G1 X132.086 Y107.934 E.07832
G1 X132.336 Y108.044 E.00856
G1 X132.575 Y108.283 E.01062
G1 X132.675 Y108.538 E.00856
G1 X132.675 Y111.126 E.08117
G1 X132.566 Y111.377 E.00857
G1 X132.326 Y111.616 E.01062
G1 X132.072 Y111.716 E.00856
G1 X129.588 Y111.716 E.07789
G1 X129.333 Y111.616 E.00856
G1 X129.084 Y111.367 E.01106
G1 X128.984 Y111.112 E.00856
G1 X128.984 Y108.538 E.08072
G1 X129.046 Y108.365 E.00575
G1 X129.39 Y108.51 F10800
G1 F1350
G1 X129.56 Y108.34 E.00755
G1 X129.63 Y108.311 E.00235
G1 X132.03 Y108.311 E.07525
G1 X132.099 Y108.34 E.00235
G1 X132.269 Y108.51 E.00755
G1 X132.298 Y108.58 E.00235
G1 X132.298 Y111.07 E.0781
G1 X132.269 Y111.14 E.00235
G1 X132.099 Y111.31 E.00755
G1 X132.03 Y111.339 E.00235
G1 X129.63 Y111.339 E.07526
G1 X129.56 Y111.31 E.00235
G1 X129.39 Y111.14 E.00755
G1 X129.362 Y111.07 E.00235
G1 X129.367 Y108.566 E.07853
;WIPE_START
G1 F8640
G1 X129.56 Y108.34 E-.06858
G1 X129.63 Y108.311 E-.01732
G1 X132.03 Y108.311 E-.55415
G1 X132.099 Y108.34 E-.01731
G1 X132.269 Y108.51 E-.05557
G1 X132.298 Y108.58 E-.01732
G1 X132.298 Y108.708 E-.02975
;WIPE_END
G1 E-.04 F2100
G1 Z.6 F10800
G1 X122.116 Y108.654
G1 Z.2
G1 E.8 F2100
G1 F1350
G1 X122.147 Y111.207 E.08005
G1 X121.907 Y111.92 E.02361
G1 X121.751 Y112.131 E.00822
G1 X121.325 Y112.536 E.01842
G1 X121.07 Y112.682 E.00923
G1 X120.563 Y112.839 E.01663
G1 X117.831 Y112.847 E.08565
G1 X117.12 Y112.607 E.02352
G1 X116.911 Y112.453 E.00814
G1 X116.498 Y112.014 E.01892
G1 X116.284 Y111.592 E.01481
G1 X116.208 Y111.311 E.00913
G1 X116.194 Y108.442 E.08998
G1 X116.434 Y107.729 E.02357
G1 X116.59 Y107.518 E.00822
G1 X117.015 Y107.114 E.01841
G1 X117.257 Y106.973 E.00875
G1 X117.639 Y106.837 E.01273
G1 X120.611 Y106.818 E.0932
G1 X120.894 Y106.895 E.00919
G1 X121.408 Y107.176 E.01838
G1 X121.754 Y107.522 E.01534
G1 X121.906 Y107.729 E.00804
G1 X122.111 Y108.24 E.01729
G1 X122.115 Y108.594 E.01108
G1 X121.749 Y108.597 F10800
G1 F1350
G1 X121.77 Y111.177 E.08091
G1 X121.584 Y111.723 E.01807
G1 X121.476 Y111.873 E.00581
G1 X121.113 Y112.224 E.01583
G1 X120.936 Y112.329 E.00644
G1 X120.479 Y112.47 E.015
G1 X117.863 Y112.47 E.08203
G1 X117.317 Y112.285 E.01805
G1 X117.169 Y112.178 E.00574
G1 X116.821 Y111.817 E.01572
G1 X116.631 Y111.441 E.0132
G1 X116.579 Y111.241 E.00648
G1 X116.571 Y108.472 E.08683
G1 X116.756 Y107.927 E.01806
G1 X116.865 Y107.777 E.00581
G1 X117.228 Y107.425 E.01584
G1 X117.402 Y107.322 E.00634
G1 X117.736 Y107.202 E.01112
G1 X120.542 Y107.189 E.08799
G1 X120.74 Y107.24 E.00641
G1 X121.163 Y107.463 E.015
G1 X121.476 Y107.777 E.01391
G1 X121.585 Y107.928 E.00584
G1 X121.747 Y108.344 E.01397
G1 X121.748 Y108.537 E.00606
G1 X121.382 Y108.538 F10800
G1 F1350
G1 X121.393 Y111.146 E.08177
G1 X121.261 Y111.529 E.01268
G1 X121.198 Y111.618 E.00342
G1 X120.894 Y111.917 E.01335
G1 X120.794 Y111.979 E.00371
G1 X120.447 Y112.093 E.01144
G1 X117.894 Y112.093 E.08004
G1 X117.512 Y111.961 E.01269
G1 X117.422 Y111.898 E.00344
G1 X117.143 Y111.619 E.01237
G1 X116.978 Y111.293 E.01144
G1 X116.951 Y111.178 E.00369
G1 X116.948 Y108.504 E.08386
G1 X117.08 Y108.121 E.01269
G1 X117.143 Y108.032 E.00342
G1 X117.446 Y107.733 E.01335
G1 X117.549 Y107.67 E.00379
G1 X117.832 Y107.568 E.00943
G1 X120.479 Y107.561 E.08298
G1 X120.593 Y107.588 E.00368
G1 X120.918 Y107.752 E.01144
G1 X121.197 Y108.031 E.01237
G1 X121.262 Y108.123 E.00352
G1 X121.382 Y108.478 E.01175
G1 X121.016 Y108.538 F10800
G1 F1350
G1 X121.016 Y111.112 E.08072
G1 X120.916 Y111.367 E.00856
G1 X120.667 Y111.616 E.01106
G1 X120.412 Y111.716 E.00856
G1 X117.928 Y111.716 E.07789
G1 X117.674 Y111.616 E.00856
G1 X117.434 Y111.377 E.01062
G1 X117.325 Y111.126 E.00857
G1 X117.325 Y108.538 E.08117
G1 X117.425 Y108.283 E.00856
G1 X117.674 Y108.034 E.01106
G1 X117.929 Y107.934 E.00856
G1 X120.426 Y107.934 E.07832
G1 X120.677 Y108.044 E.00856
G1 X120.916 Y108.283 E.01062
G1 X120.995 Y108.481 E.00668
G1 X120.638 Y108.58 F10800
G1 F1350
G1 X120.638 Y111.07 E.07809
G1 X120.61 Y111.14 E.00235
G1 X120.44 Y111.31 E.00755
G1 X120.37 Y111.339 E.00235
G1 X117.97 Y111.339 E.07526
G1 X117.901 Y111.31 E.00235
G1 X117.731 Y111.14 E.00755
G1 X117.702 Y111.07 E.00235
G1 X117.702 Y108.58 E.0781
G1 X117.731 Y108.51 E.00235
G1 X117.901 Y108.34 E.00755
G1 X117.97 Y108.311 E.00235
G1 X120.37 Y108.311 E.07525
G1 X120.44 Y108.34 E.00235
G1 X120.616 Y108.524 E.00798
; printing object v24_slider.obj id:0 copy 0
;WIPE_START
G1 F8640
G1 X120.638 Y111.07 E-.58793
G1 X120.61 Y111.14 E-.01732
G1 X120.44 Y111.31 E-.05558
G1 X120.37 Y111.339 E-.01732
G1 X120.016 Y111.339 E-.08185
;WIPE_END
G1 E-.04 F2100
G1 Z.6 F10800
G1 X115.832 Y108.354
G1 Z.2
G1 E.8 F2100
;TYPE:Support material interface
;WIDTH:0.35
G1 F1080
G1 X116.145 Y107.353 E.02678
G1 X116.19 Y107.318 E.00145
G1 X115.838 Y107.318 E.00898
G1 X115.003 Y107.318 F10800
G1 F1080
G1 X114.644 Y107.318 E.00916
G1 X114.644 Y111.953 E.11837
G1 X114.126 Y111.953 E.01322
G1 X114.126 Y107.318 E.11837
G1 X113.608 Y107.318 E.01322
G1 X113.608 Y111.953 E.11837
G1 X113.411 Y111.953 E.00504
G1 X113.411 Y111.574 E.0097
;WIPE_START
G1 F8640
G1 X113.411 Y111.953 E-.08772
G1 X113.608 Y111.953 E-.04555
G1 X113.608 Y109.239 E-.62673
;WIPE_END
G1 E-.04 F2100
G1 Z.6 F10800
G1 X115.838 Y111.953
G1 Z.2
G1 E.8 F2100
G1 F1080
G1 X116.008 Y111.953 E.00433
G1 X115.882 Y111.792 E.00522
G1 X115.79 Y111.288 E.01309
G1 X115.679 Y111.288 E.00283
G1 X115.679 Y111.953 E.017
G1 X115.162 Y111.953 E.01322
G1 X115.162 Y110.988 E.02465
G1 X115.132 Y110.958 E.00109
G1 X115.132 Y108.692 E.05787
G1 X115.162 Y108.662 E.00108
G1 X115.162 Y107.318 E.03432
G1 X115.679 Y107.318 E.01322
G1 X115.679 Y108.362 E.02667
G1 X115.462 Y108.362 E.00556
G1 X115.274 Y108.55 E.00677
;WIPE_START
G1 F8640
G1 X115.462 Y108.362 E-.06123
G1 X115.679 Y108.362 E-.05032
G1 X115.679 Y107.318 E-.24117
G1 X115.162 Y107.318 E-.11956
G1 X115.162 Y108.564 E-.28772
;WIPE_END
G1 E-.04 F2100
G1 Z.6 F10800
G1 X115.68 Y110.546
G1 Z.2
G1 E.8 F2100
;TYPE:Support material
;WIDTH:0.42
G1 F1350
G1 X115.68 Y110.919 E.01167
G1 X115.614 Y110.919 E.00208
G1 X115.501 Y110.805 E.00503
G1 X115.501 Y108.845 E.06147
G1 X115.614 Y108.731 E.00503
G1 X115.681 Y108.731 E.00208
G1 X115.68 Y110.49 E.05514
;WIPE_START
G1 F8640
G1 X115.681 Y108.731 E-.40608
G1 X115.614 Y108.731 E-.01532
G1 X115.501 Y108.845 E-.03707
G1 X115.501 Y110.151 E-.30153
;WIPE_END
G1 E-.04 F2100
G1 Z.6 F10800
G1 X133.803 Y107.318
G1 Z.2
G1 E.8 F2100
;TYPE:Support material interface
;WIDTH:0.35
G1 F1080
G1 X133.803 Y107.455 E.00349
G1 X134.117 Y107.858 E.01306
G1 X134.209 Y108.362 E.01309
G1 X134.321 Y108.362 E.00284
G1 X134.321 Y107.318 E.02667
G1 X134.838 Y107.318 E.01322
G1 X134.838 Y108.662 E.03432
G1 X134.868 Y108.692 E.00108
G1 X134.868 Y110.958 E.05787
G1 X134.838 Y110.988 E.00109
G1 X134.838 Y111.953 E.02465
G1 X135.356 Y111.953 E.01322
G1 X135.356 Y107.318 E.11837
G1 X135.874 Y107.318 E.01322
G1 X135.874 Y111.953 E.11837
G1 X136.392 Y111.953 E.01322
G1 X136.392 Y107.318 E.11837
G1 X136.589 Y107.318 E.00504
G1 X136.589 Y107.698 E.0097
;WIPE_START
G1 F8640
G1 X136.589 Y107.318 E-.08772
G1 X136.392 Y107.318 E-.04555
G1 X136.392 Y110.032 E-.62672
;WIPE_END
G1 E-.04 F2100
G1 Z.6 F10800
G1 X134.499 Y108.845
G1 Z.2
G1 E.8 F2100
;TYPE:Support material
;WIDTH:0.42
G1 F1350
G1 X134.499 Y110.805 E.06147
G1 X134.386 Y110.919 E.00503
G1 X134.32 Y110.919 E.00208
G1 X134.319 Y108.731 E.06859
G1 X134.386 Y108.731 E.00208
G1 X134.459 Y108.805 E.00326
;WIPE_START
G1 F8640
G1 X134.386 Y108.731 E-.02401
G1 X134.319 Y108.731 E-.01532
G1 X134.32 Y110.919 E-.50512
G1 X134.386 Y110.919 E-.01528
G1 X134.499 Y110.805 E-.03707
G1 X134.499 Y110.098 E-.1632
;WIPE_END
G1 E-.04 F2100
G1 Z.6 F10800
G1 X134.726 Y111.101
G1 Z.2
G1 E.8 F2100
;TYPE:Support material interface
;WIDTH:0.35
G1 F1080
G1 X134.539 Y111.288 E.00676
G1 X134.321 Y111.288 E.00557
G1 X134.321 Y111.953 E.017
G1 X133.963 Y111.953 E.00914
G1 X134.168 Y111.297 E.01757
;WIPE_START
G1 F8640
G1 X133.963 Y111.953 E-.15892
G1 X134.321 Y111.953 E-.08264
G1 X134.321 Y111.288 E-.15371
G1 X134.539 Y111.288 E-.05039
G1 X134.726 Y111.101 E-.06115
;WIPE_END
G1 E-.29319 F2100
G1 Z.6 F10800
G1 X132.584 Y99.733
G1 Z.2
G1 E.8 F2100
;TYPE:Support material
;WIDTH:0.42
G1 F1350
G1 X134.902 Y99.733 E.07267
G1 X134.902 Y102.051 E.07267
G1 X141.856 Y102.051 E.21802
G1 X141.856 Y114.902 E.40294
G1 X133.958 Y114.902 E.24762
G1 X133.958 Y112.322 E.08089
G1 X136.958 Y112.322 E.09406
G1 X136.958 Y106.949 E.16849
G1 X133.473 Y106.949 E.10928
G1 X133.286 Y106.71 E.0095
G1 X131.941 Y106.29 E.04418
G1 X129.731 Y106.29 E.0693
G1 X128.886 Y106.444 E.02692
G1 X127.76 Y107.323 E.0448
G1 X127.34 Y108.668 E.04418
G1 X127.34 Y110.969 E.07215
G1 X127.494 Y111.814 E.02692
G1 X128.373 Y112.94 E.0448
G1 X129.718 Y113.36 E.04418
G1 X131.929 Y113.36 E.06931
G1 X132.584 Y113.241 E.0209
G1 X132.584 Y114.902 E.05209
G1 X117.416 Y114.902 E.47561
G1 X117.416 Y113.159 E.05465
G1 X118.058 Y113.36 E.02111
G1 X120.269 Y113.36 E.06931
G1 X121.114 Y113.206 E.02692
G1 X122.24 Y112.327 E.0448
G1 X122.66 Y110.982 E.04418
G1 X122.66 Y108.681 E.07215
G1 X122.506 Y107.836 E.02692
G1 X121.627 Y106.71 E.0448
G1 X120.282 Y106.29 E.04418
G1 X118.072 Y106.29 E.0693
G1 X117.228 Y106.444 E.0269
G1 X116.58 Y106.949 E.02576
G1 X113.042 Y106.949 E.11093
G1 X113.042 Y112.322 E.16849
G1 X116.042 Y112.322 E.09406
G1 X116.042 Y114.902 E.08089
G1 X108.144 Y114.902 E.24762
G1 X108.144 Y102.051 E.40294
G1 X115.098 Y102.051 E.21802
G1 X115.098 Y99.733 E.07267
G1 X117.416 Y99.733 E.07267
G1 X117.416 Y97.416 E.07267
G1 X132.584 Y97.416 E.47561
G1 X132.584 Y99.677 E.0709
G1 X141.34 Y114.733 F10800
G1 F1350
G1 X141.34 Y102.391 E.38697
G1 X140.921 Y102.391 E.01314
G1 X140.921 Y114.563 E.38165
G1 X140.502 Y114.563 E.01314
G1 X140.502 Y102.391 E.38165
G1 X140.083 Y102.391 E.01314
G1 X140.083 Y114.563 E.38165
G1 X139.664 Y114.563 E.01314
G1 X139.664 Y102.391 E.38165
G1 X139.245 Y102.391 E.01314
M73 Q1 S54
G1 X139.245 Y114.563 E.38165
G1 X138.826 Y114.563 E.01314
M73 P1 R54
G1 X138.826 Y102.391 E.38165
G1 X138.407 Y102.391 E.01314
G1 X138.407 Y114.563 E.38165
G1 X137.988 Y114.563 E.01314
G1 X137.988 Y102.391 E.38165
G1 X137.569 Y102.391 E.01314
G1 X137.569 Y114.563 E.38165
G1 X137.15 Y114.563 E.01314
G1 X137.15 Y102.391 E.38165
G1 X136.731 Y102.391 E.01314
G1 X136.731 Y106.609 E.13228
G1 X136.312 Y106.609 E.01314
G1 X136.312 Y102.391 E.13228
G1 X135.893 Y102.391 E.01314
G1 X135.893 Y106.609 E.13228
G1 X135.474 Y106.609 E.01314
G1 X135.474 Y102.391 E.13228
G1 X135.055 Y102.391 E.01314
G1 X135.055 Y106.609 E.13228
G1 X134.636 Y106.609 E.01314
G1 X134.636 Y102.391 E.13228
G1 X134.563 Y102.391 E.00231
G1 X134.563 Y100.073 E.07267
G1 X134.217 Y100.073 E.01083
G1 X134.217 Y106.609 E.20495
G1 X133.799 Y106.609 E.01314
G1 X133.799 Y100.073 E.20495
G1 X133.38 Y100.073 E.01314
G1 X133.38 Y106.384 E.19787
G1 X132.961 Y106.253 E.01376
G1 X132.961 Y100.073 E.19377
G1 X132.542 Y100.073 E.01314
G1 X132.542 Y106.122 E.18967
G1 X132.123 Y105.991 E.01376
G1 X132.123 Y97.755 E.25824
G1 X131.704 Y97.755 E.01314
G1 X131.704 Y105.951 E.25697
G1 X131.285 Y105.951 E.01314
G1 X131.285 Y97.755 E.25697
G1 X130.866 Y97.755 E.01314
G1 X130.866 Y105.951 E.25697
G1 X130.447 Y105.951 E.01314
G1 X130.447 Y97.755 E.25697
G1 X130.028 Y97.755 E.01314
G1 X130.028 Y105.951 E.25697
G1 X129.7 Y105.951 E.01026
G1 X129.609 Y105.967 E.00292
G1 X129.609 Y97.755 E.25749
G1 X129.19 Y97.755 E.01314
G1 X129.19 Y106.044 E.25988
G1 X128.771 Y106.12 E.01335
G1 X128.771 Y97.755 E.26228
G1 X128.352 Y97.755 E.01314
G1 X128.352 Y106.43 E.27202
G1 X127.933 Y106.758 E.01667
G1 X127.933 Y97.755 E.28227
G1 X127.514 Y97.755 E.01314
G1 X127.514 Y107.542 E.30687
;WIPE_START
G1 F8640
G1 X127.514 Y104.251 E-.76
;WIPE_END
G1 E-.04 F2100
G1 Z.6 F10800
G1 X136.731 Y114.733
G1 Z.2
G1 E.8 F2100
G1 F1350
G1 X136.731 Y112.662 E.06493
G1 X136.312 Y112.662 E.01314
G1 X136.312 Y114.563 E.05961
G1 X135.893 Y114.563 E.01314
G1 X135.893 Y112.662 E.05961
G1 X135.474 Y112.662 E.01314
G1 X135.474 Y114.563 E.05961
G1 X135.055 Y114.563 E.01314
G1 X135.055 Y112.662 E.05961
G1 X134.636 Y112.662 E.01314
G1 X134.636 Y114.733 E.06493
;WIPE_START
G1 F8640
G1 X134.636 Y112.662 E-.47814
G1 X135.055 Y112.662 E-.09674
