; generated by PrusaSlicer 2.5.0+win64 on 2022-11-25 at 03:00:41 UTC

; 

; external perimeters extrusion width = 0.45mm
; perimeters extrusion width = 0.45mm
; infill extrusion width = 0.45mm
; solid infill extrusion width = 0.45mm
; top infill extrusion width = 0.40mm
; support material extrusion width = 0.35mm
; first layer extrusion width = 0.42mm

M73 P0 R58
M73 Q0 S59
M201 X1000 Y1000 Z200 E5000 ; sets maximum accelerations, mm/sec^2
M203 X200 Y200 Z12 E120 ; sets maximum feedrates, mm / sec
M204 P1250 R1250 T1250 ; sets acceleration (P, T) and retract acceleration (R), mm/sec^2
M205 X8.00 Y8.00 Z0.40 E4.50 ; sets the jerk limits, mm/sec
M205 S0 T0 ; sets the minimum extruding and travel feed rate, mm/sec
M107
;TYPE:Custom
M862.3 P "MK3S" ; printer model check
M862.1 P0.4 ; nozzle diameter check
M115 U3.9.3 ; tell printer latest fw version
G90 ; use absolute coordinates
M83 ; extruder relative mode
M104 S215 ; set extruder temp
M140 S70 ; set bed temp
M190 S70 ; wait for bed temp
M109 S215 ; wait for extruder temp
G28 W ; home all without mesh bed level
G80 ; mesh bed leveling
G1 Y-3.0 F1000.0 ; go outside print area
G92 E0.0
G1 X60.0 E9.0 F1000.0 ; intro line
G1 X100.0 E12.5 F1000.0 ; intro line
G92 E0.0
M221 S95

; Don't change E values below. Excessive value can damage the printer.

G21 ; set units to millimeters
G90 ; use absolute coordinates
M83 ; use relative distances for extrusion
M900 K30 ; Filament gcode
M107
;LAYER_CHANGE
;Z:0.2
;HEIGHT:0.2
;BEFORE_LAYER_CHANGE
G92 E0.0
;0.2


G1 E-.8 F2100
G1 Z.4 F10800
;AFTER_LAYER_CHANGE
;0.2
G1 X93.123 Y58.223
G1 Z.2
G1 E.8 F2100
M204 S1000
;TYPE:Skirt/Brim
;WIDTH:0.42
G1 F1350
G1 X93.495 Y57.684 E.02055
G1 X93.921 Y57.223 E.01969
G1 X94.425 Y56.815 E.02032
G1 X94.842 Y56.555 E.01542
G1 X95.564 Y56.239 E.0247
G1 X96.177 Y56.08 E.01986
G1 X96.821 Y56.007 E.02031
G1 X153.069 Y56.005 E1.76364
G1 X153.491 Y56.03 E.01323
G1 X153.926 Y56.1 E.01383
G1 X154.356 Y56.213 E.01393
G1 X154.797 Y56.379 E.01476
G1 X155.321 Y56.649 E.01849
G1 X155.791 Y56.975 E.01794
G1 X156.275 Y57.419 E.02059
G1 X156.727 Y57.986 E.02274
G1 X157.095 Y58.642 E.02358
G1 X157.298 Y59.179 E.01801
G1 X157.435 Y59.762 E.01877
G1 X157.497 Y60.469 E.02227
G1 X157.497 Y149.518 E2.79206
G1 X157.47 Y149.987 E.01472
G1 X157.409 Y150.381 E.01251
G1 X157.318 Y150.755 E.01206
G1 X157.131 Y151.275 E.01735
G1 X156.862 Y151.802 E.01853
G1 X156.528 Y152.287 E.01846
G1 X156.133 Y152.724 E.01848
G1 X155.683 Y153.108 E.01855
G1 X155.18 Y153.433 E.01876
G1 X154.453 Y153.756 E.02496
G1 X153.958 Y153.893 E.01609
G1 X153.43 Y153.976 E.01677
G1 X153.016 Y153.997 E.01301
G1 X137.823 Y153.986 E.47634
G1 X137.394 Y153.903 E.0137
G1 X136.91 Y153.672 E.01682
G1 X136.509 Y153.328 E.01657
G1 X136.187 Y152.834 E.01849
G1 X136.027 Y152.293 E.01768
G1 X136.004 Y149.704 E.08117
G1 X135.728 Y148.77 E.03056
G1 X135.531 Y148.246 E.01754
G1 X135.308 Y147.731 E.01761
G1 X135.06 Y147.227 E.01761
G1 X134.787 Y146.736 E.01761
G1 X134.49 Y146.259 E.01761
G1 X134.17 Y145.798 E.01761
G1 X133.827 Y145.353 E.01761
G1 X133.463 Y144.925 E.01761
G1 X133.078 Y144.516 E.01761
G1 X132.674 Y144.126 E.01761
G1 X132.25 Y143.757 E.01761
G1 X131.809 Y143.41 E.01761
G1 X131.352 Y143.084 E.01761
G1 X130.89 Y142.789 E.01717
G1 X130.14 Y142.377 E.02684
G1 X129.364 Y142.014 E.02684
G1 X128.854 Y141.816 E.01717
G1 X128.321 Y141.639 E.01761
G1 X127.78 Y141.488 E.01761
G1 X127.232 Y141.364 E.01761
G1 X126.679 Y141.267 E.0176
G1 X126.122 Y141.198 E.01761
G1 X125.561 Y141.156 E.01761
G1 X125 Y141.142 E.01761
G1 X124.437 Y141.156 E.01767
G1 X123.875 Y141.198 E.01767
G1 X123.316 Y141.268 E.01767
G1 X122.76 Y141.365 E.01767
G1 X122.211 Y141.49 E.01766
G1 X121.682 Y141.638 E.01723
G1 X120.872 Y141.924 E.02694
G1 X120.082 Y142.262 E.02693
G1 X119.593 Y142.512 E.01723
G1 X119.104 Y142.792 E.01767
G1 X118.63 Y143.097 E.01767
G1 X118.171 Y143.424 E.01767
G1 X117.73 Y143.774 E.01767
G1 X117.306 Y144.146 E.01767
G1 X116.901 Y144.537 E.01767
G1 X116.516 Y144.949 E.01767
G1 X116.152 Y145.379 E.01767
G1 X115.809 Y145.827 E.01767
G1 X115.49 Y146.291 E.01767
G1 X115.193 Y146.77 E.01767
G1 X114.921 Y147.264 E.01767
G1 X114.674 Y147.77 E.01767
G1 X114.452 Y148.288 E.01767
G1 X114.258 Y148.811 E.01748
G1 X113.995 Y149.711 E.02942
G1 X113.943 Y152.447 E.08581
G1 X113.78 Y152.901 E.01512
G1 X113.515 Y153.303 E.01508
G1 X113.089 Y153.669 E.01762
G1 X112.739 Y153.858 E.01247
G1 X112.067 Y153.997 E.0215
G1 X96.982 Y153.997 E.47299
G1 X96.502 Y153.969 E.01508
G1 X96.016 Y153.887 E.01544
G1 X95.405 Y153.704 E.01999
G1 X94.811 Y153.428 E.02054
G1 X94.331 Y153.118 E.01792
G1 X93.878 Y152.736 E.0186
G1 X93.446 Y152.253 E.02031
G1 X93.142 Y151.809 E.01686
G1 X92.878 Y151.296 E.01809
G1 X92.682 Y150.755 E.01806
G1 X92.591 Y150.381 E.01205
G1 X92.53 Y149.987 E.01251
G1 X92.503 Y149.518 E.01472
G1 X92.503 Y60.482 E2.79167
G1 X92.53 Y60.013 E.01472
G1 X92.591 Y59.619 E.01251
G1 X92.682 Y59.245 E.01206
G1 X92.868 Y58.727 E.01728
G1 X93.096 Y58.277 E.0158
G1 X93.432 Y58.447 F10800
G1 F1350
G1 X93.797 Y57.91 E.02036
G1 X94.188 Y57.49 E.01801
G1 X94.652 Y57.116 E.01869
G1 X95.029 Y56.882 E.01391
G1 X95.674 Y56.6 E.02205
G1 X96.259 Y56.448 E.01897
G1 X96.831 Y56.384 E.01805
G1 X153.053 Y56.381 E1.76279
G1 X153.441 Y56.404 E.0122
G1 X153.841 Y56.467 E.01267
G1 X154.234 Y56.57 E.01273
G1 X154.635 Y56.719 E.01343
G1 X155.117 Y56.966 E.01697
G1 X155.565 Y57.277 E.01712
G1 X156.008 Y57.686 E.01888
G1 X156.422 Y58.208 E.0209
G1 X156.747 Y58.788 E.02085
G1 X156.941 Y59.3 E.01717
G1 X157.065 Y59.834 E.01717
G1 X157.12 Y60.477 E.02025
G1 X157.12 Y149.513 E2.79166
G1 X157.096 Y149.939 E.01339
G1 X157.041 Y150.3 E.01144
G1 X156.954 Y150.655 E.01147
G1 X156.78 Y151.135 E.01601
G1 X156.533 Y151.619 E.01702
G1 X156.226 Y152.062 E.0169
G1 X155.863 Y152.461 E.01693
G1 X155.449 Y152.812 E.017
G1 X154.989 Y153.107 E.01714
G1 X154.339 Y153.396 E.02231
G1 X153.868 Y153.527 E.0153
G1 X153.382 Y153.602 E.01541
G1 X153.011 Y153.62 E.01165
G1 X137.843 Y153.609 E.47559
G1 X137.492 Y153.538 E.01122
G1 X137.137 Y153.369 E.01234
G1 X136.777 Y153.061 E.01487
G1 X136.52 Y152.655 E.01505
G1 X136.404 Y152.263 E.01281
G1 X136.381 Y149.648 E.082
G1 X136.085 Y148.65 E.03265
G1 X135.881 Y148.105 E.01826
G1 X135.65 Y147.572 E.01819
G1 X135.394 Y147.052 E.01819
G1 X135.112 Y146.545 E.01819
G1 X134.805 Y146.052 E.0182
G1 X134.474 Y145.575 E.01819
G1 X134.12 Y145.115 E.01819
G1 X133.744 Y144.674 E.01819
G1 X133.346 Y144.251 E.01819
G1 X132.928 Y143.848 E.0182
G1 X132.491 Y143.467 E.01819
G1 X132.035 Y143.108 E.01819
G1 X131.562 Y142.771 E.01819
G1 X131.083 Y142.465 E.01785
G1 X130.311 Y142.04 E.02762
G1 X129.512 Y141.668 E.02762
G1 X128.982 Y141.461 E.01785
G1 X128.431 Y141.278 E.01819
G1 X127.872 Y141.122 E.0182
G1 X127.306 Y140.994 E.01819
G1 X126.735 Y140.894 E.01819
G1 X126.159 Y140.822 E.0182
G1 X125.58 Y140.779 E.01819
G1 X125 Y140.765 E.01819
G1 X124.418 Y140.779 E.01826
G1 X123.837 Y140.823 E.01825
G1 X123.26 Y140.895 E.01826
G1 X122.686 Y140.995 E.01826
G1 X122.118 Y141.124 E.01825
G1 X121.568 Y141.278 E.01792
G1 X120.735 Y141.572 E.02772
G1 X119.922 Y141.921 E.02771
G1 X119.413 Y142.18 E.01792
G1 X118.908 Y142.47 E.01825
G1 X118.418 Y142.785 E.01826
G1 X117.944 Y143.123 E.01825
G1 X117.488 Y143.484 E.01825
G1 X117.05 Y143.868 E.01826
G1 X116.632 Y144.273 E.01826
G1 X116.234 Y144.698 E.01825
G1 X115.858 Y145.143 E.01825
G1 X115.504 Y145.605 E.01826
G1 X115.174 Y146.085 E.01825
G1 X114.868 Y146.58 E.01826
G1 X114.587 Y147.09 E.01826
G1 X114.331 Y147.613 E.01826
G1 X114.102 Y148.148 E.01825
G1 X113.9 Y148.692 E.01819
G1 X113.618 Y149.654 E.03142
G1 X113.567 Y152.405 E.0863
G1 X113.436 Y152.747 E.01146
G1 X113.249 Y153.035 E.01077
G1 X112.86 Y153.368 E.01606
G1 X112.588 Y153.511 E.00963
G1 X112.049 Y153.62 E.01725
G1 X96.987 Y153.62 E.47225
G1 X96.553 Y153.595 E.01363
G1 X96.111 Y153.522 E.01404
G1 X95.55 Y153.356 E.01834
G1 X95.004 Y153.104 E.01887
G1 X94.546 Y152.808 E.0171
G1 X94.132 Y152.457 E.01701
G1 X93.735 Y152.011 E.01871
G1 X93.472 Y151.627 E.01463
G1 X93.219 Y151.135 E.01734
G1 X93.046 Y150.655 E.01598
G1 X92.959 Y150.3 E.01147
G1 X92.904 Y149.939 E.01144
G1 X92.88 Y149.513 E.01339
G1 X92.88 Y60.487 E2.79135
G1 X92.904 Y60.061 E.01338
M73 P1 R58
M73 Q1 S58
G1 X92.959 Y59.7 E.01144
G1 X93.046 Y59.345 E.01147
G1 X93.219 Y58.866 E.01596
G1 X93.404 Y58.501 E.01285
G1 X93.741 Y58.672 F10800
G1 F1350
G1 X94.098 Y58.138 E.02013
G1 X94.453 Y57.758 E.01632
G1 X94.878 Y57.418 E.01706
G1 X95.216 Y57.21 E.01242
G1 X95.784 Y56.961 E.01947
G1 X96.316 Y56.821 E.01724
G1 X96.842 Y56.761 E.01661
G1 X153.037 Y56.758 E1.76195
G1 X153.393 Y56.778 E.01117
G1 X153.756 Y56.835 E.01151
G1 X154.112 Y56.927 E.01154
G1 X154.473 Y57.06 E.01207
G1 X154.933 Y57.296 E.0162
G1 X155.338 Y57.578 E.01549
G1 X155.741 Y57.952 E.01721
G1 X156.101 Y58.406 E.01818
G1 X156.399 Y58.935 E.01904
G1 X156.583 Y59.422 E.0163
G1 X156.694 Y59.904 E.01553
G1 X156.743 Y60.485 E.01826
G1 X156.743 Y149.508 E2.79126
G1 X156.722 Y149.892 E.01205
G1 X156.67 Y150.234 E.01087
G1 X156.591 Y150.555 E.01036
G1 X156.439 Y150.974 E.01396
G1 X156.203 Y151.435 E.01623
G1 X155.923 Y151.836 E.01532
G1 X155.61 Y152.182 E.01465
G1 X155.215 Y152.516 E.01621
G1 X154.799 Y152.782 E.01549
G1 X154.224 Y153.036 E.0197
G1 X153.778 Y153.16 E.01451
G1 X153.336 Y153.227 E.01403
G1 X153.007 Y153.243 E.01031
G1 X137.864 Y153.232 E.47481
G1 X137.596 Y153.175 E.0086
G1 X137.328 Y153.043 E.00937
G1 X137.047 Y152.797 E.01171
G1 X136.871 Y152.517 E.01035
G1 X136.781 Y152.23 E.00943
G1 X136.758 Y149.6 E.08247
G1 X136.624 Y149.094 E.01641
G1 X136.441 Y148.524 E.01877
G1 X136.231 Y147.963 E.01878
G1 X135.993 Y147.414 E.01878
G1 X135.728 Y146.877 E.01878
G1 X135.437 Y146.353 E.01878
G1 X135.12 Y145.845 E.01878
G1 X134.779 Y145.353 E.01878
G1 X134.413 Y144.878 E.01878
G1 X134.025 Y144.422 E.01878
G1 X133.615 Y143.986 E.01878
G1 X133.183 Y143.57 E.01878
G1 X132.732 Y143.177 E.01878
G1 X132.262 Y142.806 E.01878
G1 X131.773 Y142.459 E.01878
G1 X131.275 Y142.14 E.01853
G1 X130.481 Y141.704 E.0284
G1 X129.661 Y141.321 E.0284
G1 X129.11 Y141.106 E.01854
G1 X128.541 Y140.917 E.01878
G1 X127.964 Y140.756 E.01878
G1 X127.38 Y140.624 E.01878
G1 X126.79 Y140.521 E.01878
G1 X126.196 Y140.447 E.01878
G1 X125.599 Y140.403 E.01878
G1 X125 Y140.388 E.01878
G1 X124.399 Y140.403 E.01884
G1 X123.8 Y140.447 E.01884
G1 X123.204 Y140.522 E.01884
G1 X122.612 Y140.626 E.01885
G1 X122.026 Y140.759 E.01884
G1 X121.455 Y140.919 E.0186
G1 X120.597 Y141.221 E.0285
G1 X119.762 Y141.579 E.0285
G1 X119.234 Y141.849 E.0186
G1 X118.712 Y142.148 E.01884
G1 X118.207 Y142.472 E.01884
G1 X117.718 Y142.822 E.01884
G1 X117.247 Y143.195 E.01884
G1 X116.795 Y143.591 E.01884
G1 X116.363 Y144.009 E.01884
G1 X115.952 Y144.447 E.01884
G1 X115.564 Y144.906 E.01884
G1 X115.199 Y145.383 E.01884
G1 X114.858 Y145.878 E.01884
G1 X114.542 Y146.39 E.01884
G1 X114.252 Y146.916 E.01884
G1 X113.988 Y147.456 E.01884
G1 X113.752 Y148.008 E.01884
G1 X113.542 Y148.573 E.0189
G1 X113.242 Y149.597 E.03345
G1 X113.203 Y152.302 E.0848
G1 X113.092 Y152.591 E.00971
G1 X112.952 Y152.801 E.00792
G1 X112.637 Y153.063 E.01285
G1 X112.442 Y153.163 E.00685
G1 X112.031 Y153.243 E.01313
G1 X96.992 Y153.243 E.47155
G1 X96.603 Y153.221 E.0122
G1 X96.206 Y153.156 E.01264
G1 X95.694 Y153.007 E.01669
G1 X95.196 Y152.779 E.0172
G1 X94.78 Y152.512 E.01548
G1 X94.387 Y152.179 E.01617
G1 X94.026 Y151.771 E.01708
G1 X93.802 Y151.444 E.01242
G1 X93.56 Y150.973 E.01658
G1 X93.409 Y150.555 E.01393
G1 X93.33 Y150.234 E.01036
G1 X93.278 Y149.892 E.01087
G1 X93.257 Y149.508 E.01204
G1 X93.257 Y60.492 E2.79103
G1 X93.278 Y60.108 E.01204
G1 X93.33 Y59.766 E.01087
G1 X93.409 Y59.445 E.01036
G1 X93.56 Y59.026 E.01394
G1 X93.714 Y58.725 E.0106
G1 X94.05 Y58.896 F10800
G1 F1350
G1 X94.113 Y58.772 E.00437
G1 X94.398 Y58.366 E.01553
G1 X94.718 Y58.027 E.01463
G1 X95.103 Y57.721 E.01543
G1 X95.401 Y57.539 E.01094
G1 X95.896 Y57.321 E.01694
G1 X96.374 Y57.194 E.01551
G1 X96.853 Y57.138 E.01514
G1 X153.022 Y57.135 E1.76113
G1 X153.345 Y57.153 E.01016
M73 P1 R57
G1 X153.672 Y57.202 E.01035
G1 X153.992 Y57.284 E.01036
G1 X154.313 Y57.402 E.01072
G1 X154.728 Y57.613 E.01461
G1 X155.111 Y57.88 E.01464
G1 X155.472 Y58.217 E.01549
G1 X155.796 Y58.628 E.0164
G1 X156.052 Y59.083 E.01638
G1 X156.219 Y59.519 E.01464
G1 X156.324 Y59.975 E.01468
G1 X156.365 Y60.492 E.01625
G1 X156.366 Y149.503 E2.79088
G1 X156.348 Y149.845 E.01073
G1 X156.301 Y150.153 E.00976
G1 X156.227 Y150.456 E.00978
G1 X156.098 Y150.813 E.01191
G1 X155.874 Y151.251 E.01543
G1 X155.622 Y151.609 E.01373
G1 X155.355 Y151.903 E.01244
G1 X155.001 Y152.205 E.0146
G1 X154.608 Y152.456 E.01463
G1 X154.11 Y152.677 E.01707
G1 X153.689 Y152.794 E.01372
G1 X153.309 Y152.851 E.01205
G1 X153.003 Y152.866 E.00959
G1 X137.883 Y152.855 E.47407
G1 X137.734 Y152.824 E.00479
G1 X137.549 Y152.737 E.00639
G1 X137.345 Y152.564 E.00839
G1 X137.223 Y152.377 E.00703
G1 X137.149 Y152.144 E.00767
G1 X137.135 Y149.55 E.08132
G1 X136.986 Y148.988 E.01823
G1 X136.797 Y148.4 E.01936
G1 X136.58 Y147.822 E.01936
G1 X136.335 Y147.255 E.01936
G1 X136.062 Y146.702 E.01936
G1 X135.762 Y146.162 E.01936
G1 X135.435 Y145.638 E.01937
G1 X135.083 Y145.13 E.01936
G1 X134.706 Y144.641 E.01936
G1 X134.306 Y144.17 E.01936
G1 X133.883 Y143.721 E.01936
G1 X133.438 Y143.292 E.01937
G1 X132.973 Y142.886 E.01936
G1 X132.488 Y142.504 E.01936
G1 X131.984 Y142.146 E.01936
G1 X131.468 Y141.816 E.01922
G1 X130.652 Y141.367 E.02918
G1 X129.809 Y140.974 E.02918
G1 X129.238 Y140.751 E.01922
G1 X128.652 Y140.556 E.01936
G1 X128.057 Y140.39 E.01937
G1 X127.454 Y140.254 E.01936
G1 X126.846 Y140.148 E.01936
G1 X126.233 Y140.072 E.01937
G1 X125.617 Y140.026 E.01936
G1 X125 Y140.011 E.01936
G1 X124.381 Y140.026 E.01943
G1 X123.763 Y140.072 E.01943
G1 X123.148 Y140.149 E.01943
G1 X122.537 Y140.256 E.01943
G1 X121.933 Y140.393 E.01942
G1 X121.341 Y140.559 E.01929
G1 X120.46 Y140.869 E.02928
G1 X119.602 Y141.238 E.02928
G1 X119.054 Y141.517 E.01928
G1 X118.517 Y141.825 E.01943
G1 X117.995 Y142.16 E.01943
G1 X117.491 Y142.52 E.01943
G1 X117.005 Y142.905 E.01943
G1 X116.539 Y143.313 E.01943
G1 X116.094 Y143.744 E.01943
G1 X115.67 Y144.197 E.01943
G1 X115.27 Y144.67 E.01943
G1 X114.894 Y145.162 E.01943
G1 X114.542 Y145.672 E.01943
G1 X114.216 Y146.199 E.01943
G1 X113.917 Y146.742 E.01943
G1 X113.645 Y147.299 E.01943
G1 X113.401 Y147.868 E.01943
G1 X113.186 Y148.449 E.01943
G1 X112.999 Y149.041 E.01945
G1 X112.865 Y149.55 E.01651
G1 X112.839 Y152.198 E.08305
G1 X112.749 Y152.433 E.00788
G1 X112.659 Y152.562 E.0049
G1 X112.42 Y152.755 E.00965
G1 X112.302 Y152.812 E.0041
G1 X112.015 Y152.866 E.00917
G1 X96.997 Y152.866 E.47087
G1 X96.653 Y152.847 E.01081
G1 X96.298 Y152.791 E.01125
G1 X95.837 Y152.658 E.01504
G1 X95.387 Y152.453 E.01549
G1 X94.994 Y152.202 E.01463
G1 X94.642 Y151.901 E.01451
G1 X94.317 Y151.531 E.01545
G1 X94.121 Y151.242 E.01096
G1 X93.902 Y150.813 E.0151
G1 X93.773 Y150.456 E.0119
G1 X93.699 Y150.153 E.00978
G1 X93.652 Y149.845 E.00976
G1 X93.634 Y149.503 E.01073
G1 X93.634 Y60.497 E2.79073
G1 X93.652 Y60.155 E.01073
G1 X93.699 Y59.847 E.00976
G1 X93.773 Y59.544 E.00978
G1 X93.902 Y59.187 E.01192
G1 X94.023 Y58.949 E.00835
G1 X94.359 Y59.12 F10800
G1 F1350
G1 X94.443 Y58.955 E.0058
G1 X94.697 Y58.596 E.0138
G1 X94.982 Y58.297 E.01294
G1 X95.327 Y58.024 E.0138
G1 X95.586 Y57.868 E.00948
G1 X96.008 Y57.681 E.01449
G1 X96.433 Y57.566 E.01378
G1 X96.865 Y57.515 E.01365
G1 X153.008 Y57.512 E1.76032
G1 X153.299 Y57.527 E.00915
G1 X153.589 Y57.57 E.0092
G1 X153.873 Y57.642 E.00919
G1 X154.153 Y57.744 E.00934
G1 X154.545 Y57.943 E.0138
G1 X154.883 Y58.18 E.01294
G1 X155.203 Y58.482 E.0138
G1 X155.475 Y58.827 E.01377
G1 X155.706 Y59.233 E.01464
G1 X155.855 Y59.617 E.01293
G1 X155.953 Y60.046 E.01379
G1 X155.988 Y60.499 E.01425
G1 X155.988 Y149.499 E2.79052
G1 X155.973 Y149.799 E.00944
M73 P2 R57
M73 Q2 S58
G1 X155.933 Y150.072 E.00863
G1 X155.863 Y150.356 E.00919
G1 X155.756 Y150.653 E.0099
G1 X155.557 Y151.045 E.01379
G1 X155.32 Y151.383 E.01293
G1 X155.101 Y151.624 E.01021
